(Exported by FreeCAD)
(Post Processor: PathScripts.post.linuxcnc_post)
(Output Time:2018-01-06 20:23:04.496068)
(begin preamble)
G17 G90
G21
(begin operation: Profile_Faces)
(machine: not set, mm/min)
(Profile_Faces)
(Compensated Tool Path. Diameter: 6.35)
G0 Z14.0000
G0 X28.7610 Y28.7610
G0 Z12.0000
G1 X28.7610 Y28.7610 Z2.6500
G2 X0.9981 Y-40.6620 Z2.6500 I-28.7610 J-28.7610
G2 X-40.6620 Y-0.9981 Z2.6500 I-0.9981 J40.6620
G2 X-0.9981 Y40.6620 Z2.6500 I40.6620 J0.9981
G2 X28.7610 Y28.7610 Z2.6500 I0.9981 J-40.6620
G1 X28.7610 Y28.7610 Z0.0000
G2 X0.9981 Y-40.6620 Z0.0000 I-28.7610 J-28.7610
G2 X-40.6620 Y-0.9981 Z0.0000 I-0.9981 J40.6620
G2 X-0.9981 Y40.6620 Z0.0000 I40.6620 J0.9981
G2 X28.7610 Y28.7610 Z0.0000 I0.9981 J-40.6620
G0 Z14.0000
(finish operation: Profile_Faces)
(begin postamble)
M05
G17 G90
M2
