(Exported by FreeCAD)
(Post Processor: PathScripts.post.linuxcnc_post)
(Output Time:2018-01-06 20:23:04.496068)
(begin preamble)
G17 G90
G21
(begin operation: Pocket_3D)
(machine: not set, mm/min)
(Pocket_3D)
G0 Z14.0000
G0 X-22.7381 Y27.7881
G0 Z12.0000
G1 X-22.7381 Y27.7881 Z8.0000
G2 X-19.4211 Y30.2085 Z8.0000 I19.5016 J-23.2426
G1 X-30.1839 Y19.4457 Z8.0000
G3 X-31.5201 Y17.2128 Z8.0000 I23.3207 J-15.4724
G1 X-17.2342 Y31.4987 Z8.0000
G2 X-15.3970 Y32.4394 Z8.0000 I11.2411 J-19.6917
G1 X-32.4381 Y15.3983 Z8.0000
G3 X-33.1545 Y13.7853 Z8.0000 I17.3431 J-8.6684
G1 X-13.7784 Y33.1613 Z8.0000
G2 X-12.3102 Y33.7330 Z8.0000 I7.0075 J-15.8271
G1 X-33.7290 Y12.3141 Z8.0000
G3 X-34.1994 Y10.9472 Z8.0000 I14.7658 J-5.8450
G1 X-10.9503 Y34.1962 Z8.0000
G2 X-9.6718 Y34.5781 Z8.0000 I4.8305 J-13.8398
G1 X-34.5905 Y9.6594 Z8.0000
G1 X-34.8987 Y8.4546 Z8.0000
G1 X-8.4561 Y34.8972 Z8.0000
G2 X-7.2902 Y35.1665 Z8.0000 I3.5384 J-12.6606
G1 X-35.1550 Y7.3017 Z8.0000
G3 X-35.3714 Y6.1887 Z8.0000 I12.1061 J-2.9314
G1 X-6.1912 Y35.3689 Z8.0000
G2 X-5.1250 Y35.5384 Z8.0000 I2.3935 J-11.6152
G1 X-35.5431 Y5.1204 Z8.0000
G3 X-35.6709 Y4.0960 Z8.0000 I11.1779 J-1.9145
G1 X-4.0856 Y35.6813 Z8.0000
G2 X-3.0985 Y35.7717 Z8.0000 I1.4858 J-10.7862
G1 X-35.7776 Y3.0926 Z8.0000
G1 X-35.8435 Y2.1302 Z8.0000
G1 X-2.1279 Y35.8457 Z8.0000
G1 X-1.1882 Y35.8888 Z8.0000
G1 X-35.8875 Y1.1895 Z8.0000
G1 X-35.9084 Y0.2720 Z8.0000
G1 X-0.2751 Y35.9053 Z8.0000
G1 X0.6224 Y35.9062 Z8.0000
G1 X-35.9005 Y-0.6167 Z8.0000
G1 X-35.8806 Y-1.4934 Z8.0000
G1 X1.4876 Y35.8748 Z8.0000
G1 X2.3465 Y35.8371 Z8.0000
G1 X-35.8292 Y-2.3386 Z8.0000
G1 X-35.7718 Y-3.1778 Z8.0000
G1 X3.1713 Y35.7652 Z8.0000
G2 X3.9943 Y35.6916 Z8.0000 I-0.4082 J-9.1995
G1 X-35.6835 Y-3.9861 Z8.0000
G1 X-35.5915 Y-4.7907 Z8.0000
G1 X4.7846 Y35.5853 Z8.0000
G1 X5.5749 Y35.4791 Z8.0000
G1 X-35.4713 Y-5.5672 Z8.0000
G1 X-35.3472 Y-6.3396 Z8.0000
G1 X6.3348 Y35.3423 Z8.0000
G1 X7.0944 Y35.2053 Z8.0000
G1 X-35.1993 Y-7.0884 Z8.0000
G1 X-35.0451 Y-7.8308 Z8.0000
G1 X7.8278 Y35.0421 Z8.0000
G1 X8.5584 Y34.8761 Z8.0000
G1 X-34.8729 Y-8.5552 Z8.0000
G1 X-34.6903 Y-9.2692 Z8.0000
G1 X9.2685 Y34.6896 Z8.0000
G1 X9.9718 Y34.4963 Z8.0000
G1 X-34.4966 Y-9.9722 Z8.0000
G1 X-34.2871 Y-10.6593 Z8.0000
G1 X10.6610 Y34.2889 Z8.0000
G1 X11.3383 Y34.0696 Z8.0000
G1 X-34.0742 Y-11.3429 Z8.0000
G1 X-33.8391 Y-12.0044 Z8.0000
G1 X12.0088 Y33.8434 Z8.0000
G1 X12.6612 Y33.5992 Z8.0000
G1 X-33.6040 Y-12.6660 Z8.0000
G3 X-33.3491 Y-13.3077 Z8.0000 I7.1701 J2.4760
G1 X13.3137 Y33.3551 Z8.0000
G2 X13.9432 Y33.0880 Z8.0000 I-2.6586 J-7.1423
G1 X-33.0895 Y-13.9447 Z8.0000
G3 X-32.8198 Y-14.5716 Z8.0000 I7.0143 J2.6467
G1 X14.5719 Y32.8201 Z8.0000
G2 X15.1866 Y32.5382 Z8.0000 I-2.8305 J-6.9853
G1 X-32.5366 Y-15.1850 Z8.0000
G3 X-32.2531 Y-15.7982 Z8.0000 I6.8701 J2.8032
G1 X15.7923 Y32.2473 Z8.0000
G2 X16.3934 Y31.9518 Z8.0000 I-2.9896 J-6.8401
G1 X-31.9471 Y-16.3888 Z8.0000
G1 X-31.6411 Y-16.9794 Z8.0000
G1 X16.9768 Y31.6385 Z8.0000
G1 X17.5602 Y31.3253 Z8.0000
G1 X-31.3229 Y-17.5577 Z8.0000
G1 X-30.9947 Y-18.1262 Z8.0000
G1 X18.1269 Y30.9954 Z8.0000
G1 X18.6886 Y30.6605 Z8.0000
G1 X-30.6652 Y-18.6933 Z8.0000
G1 X-30.3154 Y-19.2401 Z8.0000
G1 X19.2439 Y30.3192 Z8.0000
G1 X19.7844 Y29.9631 Z8.0000
G1 X-29.9656 Y-19.7869 Z8.0000
G3 X-29.6043 Y-20.3223 Z8.0000 I6.0555 J3.6970
G1 X20.3250 Y29.6070 Z8.0000
G2 X20.8485 Y29.2340 Z8.0000 I-3.8914 J-6.0156
G1 X-29.2333 Y-20.8479 Z8.0000
G1 X-28.8623 Y-21.3735 Z8.0000
G1 X21.3683 Y28.8571 Z8.0000
G2 X21.8818 Y28.4740 Z8.0000 I-4.0088 J-5.9083
G1 X-28.4704 Y-21.8782 Z8.0000
G1 X-28.0786 Y-22.3829 Z8.0000
G1 X22.3810 Y28.0767 Z8.0000
G1 X22.8803 Y27.6793 Z8.0000
G1 X-27.6776 Y-22.8786 Z8.0000
G1 X-27.2651 Y-23.3627 Z8.0000
G1 X23.3637 Y27.2661 Z8.0000
G1 X23.8427 Y26.8485 Z8.0000
G1 X-26.8526 Y-23.8468 Z8.0000
G3 X-26.4222 Y-24.3131 Z8.0000 I5.3322 J4.4893
G1 X24.3167 Y26.4259 Z8.0000
G1 X24.7755 Y25.9881 Z8.0000
G1 X-25.9893 Y-24.7767 Z8.0000
G3 X-25.5503 Y-25.2343 Z8.0000 I5.2417 J4.5883
G1 X25.2343 Y25.5503 Z8.0000
G2 X25.6790 Y25.0984 Z8.0000 I-4.8094 J-5.1766
G1 X-25.0969 Y-25.6775 Z8.0000
G1 X-24.6435 Y-26.1207 Z8.0000
G1 X26.1177 Y24.6404 Z8.0000
G2 X26.5531 Y24.1792 Z8.0000 I-4.9168 J-5.0784
G1 X-24.1755 Y-26.5494 Z8.0000
G1 X-23.7016 Y-26.9721 Z8.0000
G1 X26.9716 Y23.7011 Z8.0000
G1 X27.3902 Y23.2231 Z8.0000
G1 X-23.2249 Y-27.3920 Z8.0000
G1 X-22.7305 Y-27.7943 Z8.0000
G1 X27.7960 Y22.7323 Z8.0000
G1 X28.1942 Y22.2339 Z8.0000
G1 X-22.2361 Y-28.1965 Z8.0000
G3 X-21.7299 Y-28.5868 Z8.0000 I4.5366 J5.3608
G1 X28.5905 Y21.7335 Z8.0000
G1 X28.9682 Y21.2147 Z8.0000
G1 X-21.2147 Y-28.9683 Z8.0000
G3 X-20.6991 Y-29.3493 Z8.0000 I4.4390 J5.4679
G1 X29.3460 Y20.6958 Z8.0000
G2 X29.7115 Y20.1647 Z8.0000 I-5.7297 J-4.3353
G1 X-20.1630 Y-29.7097 Z8.0000
G1 X-19.6268 Y-30.0702 Z8.0000
G1 X30.0685 Y19.6251 Z8.0000
G2 X30.4234 Y19.0834 Z8.0000 I-5.8532 J-4.2224
G1 X-19.0801 Y-30.4201 Z8.0000
G1 X-18.5226 Y-30.7592 Z8.0000
G1 X30.7592 Y18.5226 Z8.0000
G1 X31.0950 Y17.9618 Z8.0000
G1 X-17.9650 Y-31.0982 Z8.0000
G3 X-17.3859 Y-31.4157 Z8.0000 I3.7734 J6.1964
G1 X31.4172 Y17.3874 Z8.0000
G1 X31.7313 Y16.8049 Z8.0000
G1 X-16.8065 Y-31.7329 Z8.0000
G3 X-16.2155 Y-32.0386 Z8.0000 I3.6502 J6.3319
G1 X32.0412 Y16.2181 Z8.0000
G1 X32.3331 Y15.6134 Z8.0000
G1 X-15.6136 Y-32.3333 Z8.0000
G3 X-15.0101 Y-32.6263 Z8.0000 I3.5177 J6.4769
G1 X32.6250 Y15.0088 Z8.0000
G2 X32.8987 Y14.3858 Z8.0000 I-6.7983 J-3.3586
G1 X-14.3850 Y-32.8979 Z8.0000
G1 X-13.7599 Y-33.1694 Z8.0000
G1 X33.1677 Y13.7582 Z8.0000
G2 X33.4264 Y13.1203 Z8.0000 I-6.9733 J-3.1986
G1 X-13.1186 Y-33.4247 Z8.0000
G1 X-12.4695 Y-33.6722 Z8.0000
G1 X33.6716 Y12.4688 Z8.0000
G2 X33.9138 Y11.8145 Z8.0000 I-7.1640 J-3.0243
G1 X-11.8124 Y-33.9117 Z8.0000
G1 X-11.1382 Y-34.1342 Z8.0000
G1 X34.1343 Y11.1383 Z8.0000
G1 X34.3547 Y10.4621 Z8.0000
G1 X-10.4637 Y-34.3562 Z8.0000
G1 X-9.7633 Y-34.5525 Z8.0000
G1 X34.5530 Y9.7638 Z8.0000
G1 X34.7475 Y9.0617 Z8.0000
G1 X-9.0629 Y-34.7487 Z8.0000
G3 X-8.3414 Y-34.9238 Z8.0000 I2.2820 J7.8307
G1 X34.9245 Y8.3422 Z8.0000
G1 X35.0918 Y7.6128 Z8.0000
G1 X-7.6134 Y-35.0924 Z8.0000
G3 X-6.8685 Y-35.2442 Z8.0000 I2.0376 J8.0985
G1 X35.2450 Y6.8693 Z8.0000
G1 X35.3833 Y6.1111 Z8.0000
G1 X-6.1114 Y-35.3836 Z8.0000
G3 X-5.3400 Y-35.5089 Z8.0000 I1.7605 J8.4020
G1 X35.5095 Y5.3407 Z8.0000
G1 X35.6172 Y4.5517 Z8.0000
G1 X-4.5518 Y-35.6172 Z8.0000
G3 X-3.7502 Y-35.7122 Z8.0000 I1.4434 J8.7495
G1 X35.7126 Y3.7506 Z8.0000
G1 X35.7874 Y2.9287 Z8.0000
G1 X-2.9286 Y-35.7872 Z8.0000
G3 X-2.0919 Y-35.8472 Z8.0000 I1.0765 J9.1514
G1 X35.8473 Y2.0921 Z8.0000
G1 X35.8867 Y1.2348 Z8.0000
G1 X-1.2344 Y-35.8863 Z8.0000
G3 X-0.3568 Y-35.9053 Z8.0000 I0.6472 J9.6216
G1 X35.9052 Y0.3567 Z8.0000
G1 X35.9061 Y-0.5390 Z8.0000
G1 X0.5398 Y-35.9053 Z8.0000
G3 X1.4660 Y-35.8757 Z8.0000 I0.1389 J10.1785
G1 X35.8758 Y-1.4659 Z8.0000
G2 X35.8335 Y-2.4049 Z8.0000 I-10.4747 J0.0018
G1 X2.4054 Y-35.8329 Z8.0000
G3 X3.3895 Y-35.7455 Z8.0000 I-0.4746 J10.9208
G1 X35.7458 Y-3.3891 Z8.0000
G2 X35.6379 Y-4.3936 Z8.0000 I-11.2379 J0.6994
G1 X4.3927 Y-35.6389 Z8.0000
G1 X5.4309 Y-35.4972 Z8.0000
G1 X35.4986 Y-5.4295 Z8.0000
G2 X35.3098 Y-6.5149 Z8.0000 I-12.1786 J1.5592
G1 X6.5152 Y-35.3096 Z8.0000
G3 X7.6346 Y-35.0868 Z8.0000 I-1.9209 J12.5744
G1 X35.0858 Y-7.6356 Z8.0000
G2 X34.8186 Y-8.7994 Z8.0000 I-13.0907 J2.3930
G1 X8.7980 Y-34.8201 Z8.0000
G3 X10.0374 Y-34.4772 Z8.0000 I-3.1968 J13.9697
G1 X34.4786 Y-10.0360 Z8.0000
G2 X34.0680 Y-11.3432 Z8.0000 I-14.7597 J3.9184
G1 X11.3440 Y-34.0672 Z8.0000
G3 X12.7373 Y-33.5705 Z8.0000 I-4.8332 J15.7605
G1 X33.5709 Y-12.7369 Z8.0000
G2 X32.9594 Y-14.2451 Z8.0000 I-17.0969 J6.0548
G1 X14.2456 Y-32.9588 Z8.0000
G3 X15.9122 Y-32.1889 Z8.0000 I-7.7386 J18.9391
G1 X32.1904 Y-15.9106 Z8.0000
G2 X31.1794 Y-17.8183 Z8.0000 I-20.1220 J9.4427
G1 X17.8143 Y-31.1833 Z8.0000
G3 X20.2180 Y-29.6763 Z8.0000 I-15.5769 J27.5146
G1 X29.6799 Y-20.2144 Z8.0000
G2 X25.4202 Y-25.3707 Z8.0000 I-28.9575 J19.5845
G0 X25.4202 Y-25.3707 Z14.0000
G0 X21.9366 Y-21.7830 Z14.0000
G1 X21.9366 Y-21.7830 Z7.0000
G3 X25.7986 Y-17.0244 Z7.0000 I-21.5856 J21.4650
G1 X17.0385 Y-25.7844 Z7.0000
G2 X14.7822 Y-27.1442 Z7.0000 I-11.5032 J16.5362
G1 X27.1488 Y-14.7776 Z7.0000
G3 X28.0531 Y-12.9766 Z7.0000 I-19.1911 J10.7644
G1 X12.9838 Y-28.0460 Z7.0000
G2 X11.4090 Y-28.7242 Z7.0000 I-7.7711 J15.8775
G1 X28.7353 Y-11.3979 Z7.0000
G3 X29.2535 Y-9.9830 Z7.0000 I-18.1899 J7.4651
G1 X9.9876 Y-29.2489 Z7.0000
G2 X8.6768 Y-29.6631 Z7.0000 I-4.9201 J13.2905
G1 X29.6677 Y-8.6722 Z7.0000
G3 X30.0001 Y-7.4433 Z7.0000 I-16.4366 J5.1042
G1 X7.4490 Y-29.9943 Z7.0000
G2 X6.2853 Y-30.2614 Z7.0000 I-3.3317 J11.8492
G1 X30.2591 Y-6.2876 Z7.0000
G3 X30.4709 Y-5.1792 Z7.0000 I-11.3082 J2.7355
G1 X5.1726 Y-30.4775 Z7.0000
G1 X4.1220 Y-30.6315 Z7.0000
G1 X30.6378 Y-4.1157 Z7.0000
G3 X30.7495 Y-3.1074 Z7.0000 I-10.3270 J1.6541
G1 X3.1079 Y-30.7490 Z7.0000
G2 X2.1214 Y-30.8388 Z7.0000 I-1.4185 J10.1132
G1 X30.8338 Y-2.1264 Z7.0000
G1 X30.8897 Y-1.1739 Z7.0000
G1 X1.1790 Y-30.8846 Z7.0000
G2 X0.2616 Y-30.9054 Z7.0000 I-0.6733 J9.4370
G1 X30.9044 Y-0.2627 Z7.0000
G3 X30.9039 Y0.6335 Z7.0000 I-9.2285 J0.4435
G1 X-0.6350 Y-30.9054 Z7.0000
G2 X-1.4954 Y-30.8692 Z7.0000 I-0.0574 J8.8782
G1 X30.8707 Y1.4969 Z7.0000
G3 X30.8185 Y2.3413 Z7.0000 I-8.7216 J-0.1151
G1 X-2.3460 Y-30.8232 Z7.0000
G1 X-3.1630 Y-30.7436 Z7.0000
G1 X30.7467 Y3.1661 Z7.0000
G3 X30.6505 Y3.9666 Z7.0000 I-8.2912 J-0.5894
G1 X-3.9698 Y-30.6538 Z7.0000
G1 X-4.7518 Y-30.5392 Z7.0000
G1 X30.5430 Y4.7556 Z7.0000
G3 X30.4091 Y5.5183 Z7.0000 I-7.9209 J-0.9976
G1 X-5.5209 Y-30.4116 Z7.0000
G1 X-6.2702 Y-30.2643 Z7.0000
G1 X30.2684 Y6.2743 Z7.0000
G3 X30.1016 Y7.0040 Z7.0000 I-7.5980 J-1.3534
G1 X-7.0063 Y-30.1039 Z7.0000
G1 X-7.7251 Y-29.9260 Z7.0000
G1 X29.9299 Y7.7290 Z7.0000
G3 X29.7340 Y8.4297 Z7.0000 I-7.3131 J-1.6674
G1 X-8.4321 Y-29.7364 Z7.0000
G1 X-9.1220 Y-29.5297 Z7.0000
G1 X29.5331 Y9.1254 Z7.0000
G3 X29.3112 Y9.8002 Z7.0000 I-7.0588 J-1.9476
G1 X-9.8031 Y-29.3141 Z7.0000
G1 X-10.4656 Y-29.0801 Z7.0000
G1 X29.0827 Y10.4683 Z7.0000
G3 X28.8374 Y11.1196 Z7.0000 I-6.8294 J-2.2004
G1 X-11.1232 Y-28.8410 Z7.0000
G1 X-11.7596 Y-28.5808 Z7.0000
G1 X28.5826 Y11.7613 Z7.0000
G3 X28.3159 Y12.3913 Z7.0000 I-6.6204 J-2.4307
G1 X-12.3958 Y-28.3204 Z7.0000
G1 X-13.0071 Y-28.0351 Z7.0000
G1 X28.0358 Y13.0077 Z7.0000
G3 X27.7495 Y13.6181 Z7.0000 I-6.4281 J-2.6427
G1 X-13.6184 Y-27.7498 Z7.0000
G2 X-14.2107 Y-27.4455 Z7.0000 I2.8375 J6.2514
G1 X27.4449 Y14.2101 Z7.0000
G1 X27.1404 Y14.8022 Z7.0000
G1 X-14.7978 Y-27.1360 Z7.0000
G2 X-15.3725 Y-26.8141 Z7.0000 I3.0270 J6.0794
G1 X26.8123 Y15.3707 Z7.0000
G1 X26.4841 Y15.9391 Z7.0000
G1 X-15.9361 Y-26.4811 Z7.0000
G2 X-16.4943 Y-26.1427 Z7.0000 I3.2054 J5.9175
G1 X26.1395 Y16.4911 Z7.0000
G1 X25.7883 Y17.0365 Z7.0000
G1 X-17.0350 Y-25.7868 Z7.0000
G1 X-17.5757 Y-25.4308 Z7.0000
G1 X25.4280 Y17.5729 Z7.0000
G1 X25.0542 Y18.0957 Z7.0000
G1 X-18.0957 Y-25.0543 Z7.0000
G1 X-18.6139 Y-24.6759 Z7.0000
G1 X24.6790 Y18.6170 Z7.0000
G1 X24.2830 Y19.1177 Z7.0000
G1 X-19.1193 Y-24.2846 Z7.0000
G1 X-19.6154 Y-23.8841 Z7.0000
G1 X23.8870 Y19.6184 Z7.0000
G3 X23.4753 Y20.1033 Z7.0000 I-5.1991 J-3.9972
G1 X-20.1065 Y-23.4785 Z7.0000
G1 X-20.5806 Y-23.0561 Z7.0000
G1 X23.0574 Y20.5820 Z7.0000
G3 X22.6317 Y21.0529 Z7.0000 I-5.0620 J-4.1482
G1 X-21.0548 Y-22.6337 Z7.0000
G2 X-21.5125 Y-22.1947 Z7.0000 I4.8949 J5.5616
G1 X22.1920 Y21.5098 Z7.0000
G1 X21.7524 Y21.9667 Z7.0000
G1 X-21.9663 Y-21.7519 Z7.0000
G1 X-22.4047 Y-21.2937 Z7.0000
G1 X21.2911 Y22.4020 Z7.0000
G1 X20.8296 Y22.8372 Z7.0000
G1 X-22.8386 Y-20.8310 Z7.0000
G1 X-23.2604 Y-20.3562 Z7.0000
G1 X20.3544 Y23.2587 Z7.0000
G1 X19.8712 Y23.6720 Z7.0000
G1 X-23.6743 Y-19.8735 Z7.0000
G1 X-24.0796 Y-19.3821 Z7.0000
G1 X19.3820 Y24.0794 Z7.0000
G1 X18.8767 Y24.4708 Z7.0000
G1 X-24.4734 Y-18.8793 Z7.0000
G1 X-24.8619 Y-18.3712 Z7.0000
G1 X18.3715 Y24.8621 Z7.0000
G3 X17.8457 Y25.2329 Z7.0000 I-4.0813 J-5.2290
G1 X-25.2352 Y-17.8480 Z7.0000
G2 X-25.6047 Y-17.3208 Z7.0000 I6.9608 J5.2723
G1 X17.3182 Y25.6021 Z7.0000
G3 X16.7772 Y25.9577 Z7.0000 I-3.9329 J-5.3926
G1 X-25.9592 Y-16.7787 Z7.0000
G2 X-26.3074 Y-16.2303 Z7.0000 I7.2356 J4.9776
G1 X16.2271 Y26.3042 Z7.0000
G3 X15.6703 Y26.6440 Z7.0000 I-3.7777 J-5.5637
G1 X-26.6444 Y-15.6707 Z7.0000
G2 X-26.9704 Y-15.1001 Z7.0000 I7.5232 J4.6770
G1 X15.0970 Y26.9673 Z7.0000
G3 X14.5235 Y27.2904 Z7.0000 I-3.6139 J-5.7439
G1 X-27.2897 Y-14.5227 Z7.0000
G2 X-27.5927 Y-13.9292 Z7.0000 I7.8672 J4.3909
G1 X13.9264 Y27.5900 Z7.0000
G1 X13.3294 Y27.8895 Z7.0000
G1 X-27.8904 Y-13.3303 Z7.0000
G1 X-28.1729 Y-12.7162 Z7.0000
G1 X12.7135 Y28.1703 Z7.0000
G1 X12.0919 Y28.4453 Z7.0000
G1 X-28.4461 Y-12.0927 Z7.0000
G1 X-28.7096 Y-11.4596 Z7.0000
G1 X11.4561 Y28.7060 Z7.0000
G1 X10.8089 Y28.9555 Z7.0000
G1 X-28.9568 Y-10.8102 Z7.0000
G2 X-29.1968 Y-10.1536 Z7.0000 I8.7990 J3.5883
G1 X10.1513 Y29.1945 Z7.0000
G1 X9.4775 Y29.4173 Z7.0000
G1 X-29.4205 Y-9.4806 Z7.0000
G2 X-29.6318 Y-8.7953 Z7.0000 I9.1839 J3.2072
G1 X8.7970 Y29.6334 Z7.0000
G1 X8.0987 Y29.8317 Z7.0000
G1 X-29.8342 Y-8.1011 Z7.0000
G1 X-30.0147 Y-7.3851 Z7.0000
G1 X7.3845 Y30.0142 Z7.0000
G3 X6.6600 Y30.1862 Z7.0000 I-2.6946 J-9.7358
G1 X-30.1827 Y-6.6565 Z7.0000
G1 X-30.3365 Y-5.9136 Z7.0000
G1 X5.9163 Y30.3391 Z7.0000
G3 X5.1563 Y30.4758 Z7.0000 I-2.2360 J-10.2547
G1 X-30.4747 Y-5.1552 Z7.0000
G1 X-30.5963 Y-4.3802 Z7.0000
G1 X4.3831 Y30.5992 Z7.0000
G1 X3.5896 Y30.7023 Z7.0000
G1 X-30.6981 Y-3.5853 Z7.0000
G1 X-30.7851 Y-2.7758 Z7.0000
G1 X2.7750 Y30.7843 Z7.0000
G3 X1.9430 Y30.8489 Z7.0000 I-1.2923 J-11.2455
G1 X-30.8448 Y-1.9389 Z7.0000
G1 X-30.8945 Y-1.0920 Z7.0000
G1 X1.0919 Y30.8945 Z7.0000
G1 X0.2116 Y30.9108 Z7.0000
G1 X-30.9049 Y-0.2058 Z7.0000
G2 X-30.9016 Y0.6942 Z7.0000 I9.2691 J0.4154
G1 X-0.6939 Y30.9019 Z7.0000
G3 X-1.6258 Y30.8666 Z7.0000 I0.0107 J-12.6073
G1 X-30.8657 Y1.6266 Z7.0000
G2 X-30.7967 Y2.5923 Z7.0000 I9.9787 J-0.2284
G1 X-2.5873 Y30.8017 Z7.0000
G3 X-3.5824 Y30.7032 Z7.0000 I0.8399 J-13.5657
G1 X-30.7029 Y3.5827 Z7.0000
G1 X-30.5614 Y4.6208 Z7.0000
G1 X-4.6159 Y30.5663 Z7.0000
G3 X-5.6940 Y30.3848 Z7.0000 I1.9259 J-14.7348
G1 X-30.3745 Y5.7043 Z7.0000
G2 X-30.1419 Y6.8335 Z7.0000 I11.7438 J-1.8300
G1 X-6.8244 Y30.1510 Z7.0000
G3 X-8.0172 Y29.8548 Z7.0000 I3.4055 J-16.2631
G1 X-29.8523 Y8.0198 Z7.0000
G1 X-29.4885 Y9.2802 Z7.0000
G1 X-9.2889 Y29.4797 Z7.0000
G3 X-10.6475 Y29.0177 Z7.0000 I4.0780 J-14.2211
G1 X-29.0233 Y10.6419 Z7.0000
G2 X-28.4370 Y12.1249 Z7.0000 I14.8910 J-5.0305
G1 X-12.1362 Y28.4257 Z7.0000
G3 X-13.8102 Y27.6483 Z7.0000 I7.1683 J-17.6269
G1 X-27.6532 Y13.8053 Z7.0000
G2 X-26.5771 Y15.7780 Z7.0000 I20.8519 J-10.0947
G1 X-15.7639 Y26.5912 Z7.0000
G3 X-18.4518 Y24.8000 Z7.0000 I14.7938 J-25.1112
G1 X-24.7990 Y18.4527 Z7.0000
G2 X-18.4518 Y24.8000 Z7.0000 I24.5763 J-18.2290
G0 X-18.4518 Y24.8000 Z14.0000
G0 X-18.5468 Y24.7263 Z14.0000
G1 X-18.5468 Y24.7263 Z6.0000
G2 X-15.8131 Y26.5635 Z6.0000 I17.5406 J-23.1485
G1 X-26.5478 Y15.8287 Z6.0000
G3 X-27.6305 Y13.8495 Z6.0000 I19.8403 J-12.1384
G1 X-13.8532 Y27.6267 Z6.0000
G2 X-12.1746 Y28.4087 Z6.0000 I8.8917 J-16.8943
G1 X-28.4191 Y12.1642 Z6.0000
G3 X-29.0122 Y10.6745 Z6.0000 I14.6733 J-6.7047
G1 X-10.6824 Y29.0043 Z6.0000
G2 X-9.3210 Y29.4691 Z6.0000 I5.4674 J-13.7871
G1 X-29.4782 Y9.3119 Z6.0000
G3 X-29.8436 Y8.0499 Z6.0000 I12.8127 J-4.3933
G1 X-8.1252 Y29.7683 Z6.0000
G2 X-6.9301 Y30.0667 Z6.0000 I5.0127 J-17.5282
G1 X-30.1353 Y6.8616 Z6.0000
G3 X-30.3696 Y5.7307 Z6.0000 I11.5283 J-2.9781
G1 X-5.7951 Y30.3052 Z6.0000
G2 X-4.7114 Y30.4922 Z6.0000 I3.3189 J-15.9955
G1 X-30.5580 Y4.6457 Z6.0000
G1 X-30.6995 Y3.6076 Z6.0000
G1 X-3.6723 Y30.6348 Z6.0000
G2 X-2.6721 Y30.7384 Z6.0000 I2.0370 J-14.7856
G1 X-30.7946 Y2.6158 Z6.0000
G3 X-30.8649 Y1.6489 Z6.0000 I9.9213 J-1.2070
G1 X-1.7063 Y30.8075 Z6.0000
G2 X-0.7713 Y30.8459 Z6.0000 I1.0343 J-13.7766
G1 X-30.9007 Y0.7165 Z6.0000
G3 X-30.9051 Y-0.1846 Z6.0000 I9.2762 J-0.4961
G1 X0.1361 Y30.8567 Z6.0000
G1 X1.0178 Y30.8418 Z6.0000
G1 X-30.8957 Y-1.0717 Z6.0000
G1 X-30.8460 Y-1.9186 Z6.0000
G1 X1.8717 Y30.7991 Z6.0000
G2 X2.7048 Y30.7356 Z6.0000 I-0.5236 J-12.3638
G1 X-30.7872 Y-2.7565 Z6.0000
G1 X-30.7001 Y-3.5660 Z6.0000
G1 X3.5189 Y30.6530 Z6.0000
G2 X4.3153 Y30.5529 Z6.0000 I-1.0886 J-11.8771
G1 X-30.5992 Y-4.3617 Z6.0000
G1 X-30.4776 Y-5.1367 Z6.0000
G1 X5.0929 Y30.4338 Z6.0000
G2 X5.8505 Y30.2948 Z6.0000 I-1.6853 J-11.3174
G1 X-30.3402 Y-5.8959 Z6.0000
G1 X-30.1864 Y-6.6387 Z6.0000
G1 X6.5940 Y30.1417 Z6.0000
G2 X7.3243 Y29.9754 Z6.0000 I-2.0837 J-10.8403
G1 X-30.0075 Y-7.3565 Z6.0000
G2 X-29.7903 Y-8.0359 Z6.0000 I-4.0509 J-1.6695
G1 X8.0366 Y29.7911 Z6.0000
G3 X8.7772 Y29.6350 Z6.0000 I1.6344 J5.9214
G1 X-29.5958 Y-8.7379 Z6.0000
G3 X-29.3816 Y-9.4203 Z6.0000 I10.1631 J2.8152
G1 X9.4614 Y29.4227 Z6.0000
G1 X10.1352 Y29.1998 Z6.0000
G1 X-29.1571 Y-10.0925 Z6.0000
G3 X-28.9229 Y-10.7549 Z6.0000 I9.9518 J3.1462
G1 X10.7935 Y28.9615 Z6.0000
G1 X11.4406 Y28.7120 Z6.0000
G1 X-28.6715 Y-11.4001 Z6.0000
G3 X-28.4102 Y-12.0354 Z6.0000 I9.5656 J3.5616
G1 X12.0770 Y28.4518 Z6.0000
G1 X12.6987 Y28.1769 Z6.0000
G1 X-28.1406 Y-12.6624 Z6.0000
G1 X-27.8541 Y-13.2726 Z6.0000
G1 X13.3151 Y27.8967 Z6.0000
G1 X13.9122 Y27.5971 Z6.0000
G1 X-27.5596 Y-13.8746 Z6.0000
G1 X-27.2562 Y-14.4678 Z6.0000
G1 X14.5092 Y27.2976 Z6.0000
G2 X15.0833 Y26.9750 Z6.0000 I-3.0345 J-6.0729
G1 X-26.9376 Y-15.0459 Z6.0000
G3 X-26.6122 Y-15.6170 Z6.0000 I8.5674 J4.5034
G1 X15.6566 Y26.6517 Z6.0000
G2 X16.2139 Y26.3125 Z6.0000 I-3.2149 J-5.9089
G1 X-26.2759 Y-16.1773 Z6.0000
G3 X-25.9277 Y-16.7258 Z6.0000 I8.2665 J4.8627
G1 X16.7641 Y25.9660 Z6.0000
G2 X17.3056 Y25.6109 Z6.0000 I-3.3861 J-5.7536
G1 X-25.5733 Y-17.2680 Z6.0000
G1 X-25.2053 Y-17.7966 Z6.0000
G1 X17.8331 Y25.2418 Z6.0000
G2 X18.3594 Y24.8715 Z6.0000 I-3.5498 J-5.6051
G1 X-24.8293 Y-18.3172 Z6.0000
G1 X-24.4457 Y-18.8303 Z6.0000
G1 X18.8647 Y24.4801 Z6.0000
G1 X19.3699 Y24.0888 Z6.0000
G1 X-24.0486 Y-19.3297 Z6.0000
G3 X-23.6459 Y-19.8236 Z6.0000 I7.5342 J5.7325
G1 X19.8596 Y23.6819 Z6.0000
G1 X20.3429 Y23.2685 Z6.0000
G1 X-23.2318 Y-20.3061 Z6.0000
G3 X-22.8084 Y-20.7793 Z6.0000 I7.2283 J6.0416
G1 X20.8186 Y22.8476 Z6.0000
G1 X21.2800 Y22.4124 Z6.0000
G1 X-22.3791 Y-21.2467 Z6.0000
G3 X-21.9351 Y-21.6993 Z6.0000 I6.9173 J6.3413
G1 X21.7415 Y21.9773 Z6.0000
G2 X22.1815 Y21.5207 Z6.0000 I-4.4812 J-4.7597
G1 X-21.4979 Y-22.1587 Z6.0000
G3 X-21.0662 Y-22.6236 Z6.0000 I2.6577 J2.0356
G1 X22.6212 Y21.0638 Z6.0000
G2 X23.0474 Y20.5934 Z6.0000 I-4.6307 J-4.6242
G1 X-20.5920 Y-23.0460 Z6.0000
G1 X-20.1178 Y-23.4684 Z6.0000
G1 X23.4653 Y20.1147 Z6.0000
G2 X23.8776 Y19.6303 Z6.0000 I-4.7817 J-4.4872
G1 X-19.6272 Y-23.8745 Z6.0000
G1 X-19.1312 Y-24.2750 Z6.0000
G1 X24.2735 Y19.1297 Z6.0000
G1 X24.6695 Y18.6290 Z6.0000
G1 X-18.6263 Y-24.6668 Z6.0000
G1 X-18.1081 Y-25.0452 Z6.0000
G1 X25.0453 Y18.1082 Z6.0000
G1 X25.4191 Y17.5854 Z6.0000
G1 X-17.5886 Y-25.4223 Z6.0000
G1 X-17.0479 Y-25.7782 Z6.0000
G1 X25.7799 Y17.0495 Z6.0000
G1 X26.1311 Y16.5041 Z6.0000
G1 X-16.5073 Y-26.1342 Z6.0000
G3 X-15.9496 Y-26.4731 Z6.0000 I3.7690 J5.5732
G1 X26.4762 Y15.9527 Z6.0000
G1 X26.8044 Y15.3843 Z6.0000
G1 X-15.3860 Y-26.8061 Z6.0000
G3 X-14.8118 Y-27.1286 Z6.0000 I3.6073 J5.7515
G1 X27.1326 Y14.8158 Z6.0000
G2 X27.4377 Y14.2243 Z6.0000 I-5.9393 J-3.4374
G1 X-14.2247 Y-27.4381 Z6.0000
G3 X-13.6330 Y-27.7430 Z6.0000 I3.4355 J5.9408
G1 X27.7422 Y13.6322 Z6.0000
G2 X28.0291 Y13.0225 Z6.0000 I-6.1355 J-3.2587
G1 X-13.0217 Y-28.0283 Z6.0000
G1 X-12.4104 Y-28.3136 Z6.0000
G1 X28.3092 Y12.4060 Z6.0000
G2 X28.5765 Y11.7767 Z6.0000 I-6.3473 J-3.0666
G1 X-11.7748 Y-28.5746 Z6.0000
G1 X-11.1384 Y-28.8348 Z6.0000
G1 X28.8313 Y11.1349 Z6.0000
G2 X29.0773 Y10.4842 Z6.0000 I-6.5773 J-2.8579
G1 X-10.4814 Y-29.0745 Z6.0000
G1 X-9.8189 Y-29.3085 Z6.0000
G1 X29.3058 Y9.8161 Z6.0000
G2 X29.5283 Y9.1421 Z6.0000 I-6.8298 J-2.6288
G1 X-9.1385 Y-29.5248 Z6.0000
G1 X-8.4486 Y-29.7315 Z6.0000
G1 X29.7292 Y8.4463 Z6.0000
G2 X29.9258 Y7.7463 Z6.0000 I-7.1096 J-2.3749
G1 X-7.7423 Y-29.9217 Z6.0000
G1 X-7.0235 Y-30.0996 Z6.0000
G1 X30.0975 Y7.0214 Z6.0000
G2 X30.2651 Y6.2924 Z6.0000 I-7.4231 J-2.0904
G1 X-6.2881 Y-30.2608 Z6.0000
G1 X-5.5388 Y-30.4081 Z6.0000
G1 X30.4057 Y5.5364 Z6.0000
G2 X30.5404 Y4.7745 Z6.0000 I-7.7784 J-1.7680
G1 X-4.7705 Y-30.5364 Z6.0000
G1 X-3.9885 Y-30.6511 Z6.0000
G1 X30.6480 Y3.9854 Z6.0000
G2 X30.7449 Y3.1858 Z6.0000 I-8.1859 J-1.3982
G1 X-3.1826 Y-30.7417 Z6.0000
G1 X-2.3655 Y-30.8213 Z6.0000
G1 X30.8168 Y2.3611 Z6.0000
G2 X30.8699 Y1.5176 Z6.0000 I-8.6594 J-0.9686
G1 X-1.5159 Y-30.8682 Z6.0000
G3 X-0.6564 Y-30.9054 Z6.0000 I0.8127 J8.8312
G1 X30.9031 Y0.6541 Z6.0000
G2 X30.9046 Y-0.2410 Z6.0000 I-9.2171 J-0.4626
G1 X0.2402 Y-30.9054 Z6.0000
G3 X1.1565 Y-30.8857 Z6.0000 I0.2549 J9.4460
G1 X30.8910 Y-1.1512 Z6.0000
G1 X30.8352 Y-2.1037 Z6.0000
G1 X2.0989 Y-30.8399 Z6.0000
G3 X3.0841 Y-30.7513 Z6.0000 I-0.4201 J10.1899
G1 X30.7520 Y-3.0834 Z6.0000
G2 X30.6418 Y-4.0903 Z6.0000 I-10.4233 J0.6320
G1 X4.0969 Y-30.6352 Z6.0000
G1 X5.1475 Y-30.4812 Z6.0000
G1 X30.4749 Y-5.1538 Z6.0000
G2 X30.2647 Y-6.2606 Z6.0000 I-11.5027 J1.6113
G1 X6.2587 Y-30.2666 Z6.0000
G3 X7.4205 Y-30.0014 Z6.0000 I-2.1504 J12.0968
G1 X29.9741 Y-7.4478 Z6.0000
G3 X29.6016 Y-8.7169 Z6.0000 I7.0034 J-2.7445
G1 X8.6462 Y-29.6723 Z6.0000
G3 X9.9544 Y-29.2607 Z6.0000 I-3.5845 J13.6773
G1 X29.1758 Y-10.0393 Z6.0000
G2 X28.6458 Y-11.4659 Z6.0000 I-21.4461 J7.1558
G1 X11.3727 Y-28.7390 Z6.0000
G3 X12.9436 Y-28.0647 Z6.0000 I-6.1578 J16.5132
G1 X27.9589 Y-13.0494 Z6.0000
G2 X27.0355 Y-14.8694 Z6.0000 I-21.5207 J9.7744
G1 X14.7368 Y-27.1681 Z6.0000
G3 X16.9758 Y-25.8257 Z6.0000 I-9.2927 J18.0380
G1 X25.6560 Y-17.1455 Z6.0000
G2 X22.3668 Y-21.2600 Z6.0000 I-25.6058 J17.0976
G3 X21.1205 Y-22.5751 Z6.0000 I14.9376 J-15.4044
G0 X21.1205 Y-22.5751 Z14.0000
G0 X21.1068 Y-22.5874 Z14.0000
G1 X21.1068 Y-22.5874 Z5.0000
G3 X21.9639 Y-21.4134 Z5.0000 I-3.3162 J3.3211
G2 X22.7334 Y-20.5731 Z5.0000 I7.4667 J-6.0643
G3 X24.8660 Y-17.9315 Z5.0000 I-21.9784 J19.9259
G1 X16.9641 Y-25.8334 Z5.0000
G2 X14.7284 Y-27.1726 Z5.0000 I-11.5385 J16.7281
G1 X26.5270 Y-15.3740 Z5.0000
G3 X27.5453 Y-13.4590 Z5.0000 I-24.2641 J14.1316
G1 X12.9361 Y-28.0682 Z5.0000
G2 X11.3659 Y-28.7418 Z5.0000 I-7.7208 J15.8318
G1 X28.2875 Y-11.8203 Z5.0000
G3 X28.8583 Y-10.3528 Z5.0000 I-24.0245 J10.1905
G1 X9.9483 Y-29.2628 Z5.0000
G2 X8.6405 Y-29.6740 Z5.0000 I-4.8876 J13.2610
G1 X29.3025 Y-9.0120 Z5.0000
G2 X29.7978 Y-7.8332 Z5.0000 I3.1509 J-0.6305
G3 X29.9701 Y-7.4478 Z5.0000 I-2.1223 J1.1800
G1 X7.4152 Y-30.0027 Z5.0000
G2 X6.2537 Y-30.2676 Z5.0000 I-3.3086 J11.8283
G1 X30.2657 Y-6.2555 Z5.0000
G3 X30.4756 Y-5.1490 Z5.0000 I-11.2895 J2.7149
G1 X5.1428 Y-30.4818 Z5.0000
G1 X4.0922 Y-30.6359 Z5.0000
G1 X30.6425 Y-4.0855 Z5.0000
G3 X30.7525 Y-3.0789 Z5.0000 I-10.3106 J1.6360
G1 X3.0797 Y-30.7517 Z5.0000
G2 X2.0947 Y-30.8401 Z5.0000 I-1.4029 J10.0991
G1 X30.8354 Y-2.0994 Z5.0000
G1 X30.8913 Y-1.1469 Z5.0000
G1 X1.1523 Y-30.8859 Z5.0000
G2 X0.2362 Y-30.9054 Z5.0000 I-0.6593 J9.4243
G1 X30.9046 Y-0.2370 Z5.0000
G3 X30.9030 Y0.6580 Z5.0000 I-9.2167 J0.4305
G1 X-0.6605 Y-30.9054 Z5.0000
G2 X-1.5197 Y-30.8681 Z5.0000 I-0.0447 J8.8666
G1 X30.8698 Y1.5214 Z5.0000
G3 X30.8165 Y2.3647 Z5.0000 I-8.7108 J-0.1270
G1 X-2.3691 Y-30.8209 Z5.0000
G1 X-3.1862 Y-30.7414 Z5.0000
G1 X30.7446 Y3.1895 Z5.0000
G3 X30.6475 Y3.9890 Z5.0000 I-8.2813 J-0.6003
G1 X-3.9920 Y-30.6505 Z5.0000
G1 X-4.7740 Y-30.5359 Z5.0000
G1 X30.5400 Y4.7780 Z5.0000
G3 X30.4051 Y5.5398 Z5.0000 I-7.9117 J-1.0077
G1 X-5.5421 Y-30.4074 Z5.0000
G1 X-6.2915 Y-30.2602 Z5.0000
G1 X30.2644 Y6.2957 Z5.0000
G3 X30.0967 Y7.0246 Z5.0000 I-7.5893 J-1.3629
G1 X-7.0267 Y-30.0988 Z5.0000
G1 X-7.7455 Y-29.9210 Z5.0000
G1 X29.9250 Y7.7496 Z5.0000
G3 X29.7283 Y8.4494 Z5.0000 I-7.3050 J-1.6764
G1 X-8.4517 Y-29.7306 Z5.0000
G1 X-9.1416 Y-29.5238 Z5.0000
G1 X29.5274 Y9.1452 Z5.0000
G3 X29.3047 Y9.8191 Z5.0000 I-7.0511 J-1.9561
G1 X-9.8219 Y-29.3075 Z5.0000
G1 X-10.4844 Y-29.0734 Z5.0000
G1 X29.0763 Y10.4872 Z5.0000
G3 X28.8302 Y11.1378 Z5.0000 I-6.8221 J-2.2085
G1 X-11.1412 Y-28.8336 Z5.0000
G1 X-11.7776 Y-28.5734 Z5.0000
G1 X28.5753 Y11.7795 Z5.0000
G3 X28.3080 Y12.4088 Z5.0000 I-6.6134 J-2.4385
G1 X-12.4131 Y-28.3123 Z5.0000
G1 X-13.0244 Y-28.0270 Z5.0000
G1 X28.0278 Y13.0252 Z5.0000
G3 X27.7408 Y13.6349 Z5.0000 I-6.4213 J-2.6502
G1 X-13.6357 Y-27.7417 Z5.0000
G2 X-14.2273 Y-27.4367 Z5.0000 I2.8449 J6.2446
G1 X27.4363 Y14.2269 Z5.0000
G3 X27.1311 Y14.8184 Z5.0000 I-6.2428 J-2.8467
G1 X-14.8144 Y-27.1272 Z5.0000
G2 X-15.3885 Y-26.8047 Z5.0000 I3.0342 J6.0729
G1 X26.8029 Y15.3868 Z5.0000
G1 X26.4748 Y15.9552 Z5.0000
G1 X-15.9521 Y-26.4716 Z5.0000
G2 X-16.5097 Y-26.1326 Z5.0000 I3.2125 J5.9111
G1 X26.1295 Y16.5066 Z5.0000
G1 X25.7783 Y17.0520 Z5.0000
G1 X-17.0503 Y-25.7767 Z5.0000
G1 X-17.5910 Y-25.4207 Z5.0000
G1 X25.4174 Y17.5877 Z5.0000
G1 X25.0436 Y18.1105 Z5.0000
G1 X-18.1104 Y-25.0435 Z5.0000
G1 X-18.6286 Y-24.6651 Z5.0000
G1 X24.6677 Y18.6312 Z5.0000
G1 X24.2718 Y19.1319 Z5.0000
G1 X-19.1334 Y-24.2733 Z5.0000
G1 X-19.6295 Y-23.8727 Z5.0000
G1 X23.8758 Y19.6326 Z5.0000
G3 X23.4635 Y20.1168 Z5.0000 I-5.1930 J-4.0039
G1 X-20.1199 Y-23.4666 Z5.0000
G1 X-20.5941 Y-23.0441 Z5.0000
G1 X23.0456 Y20.5956 Z5.0000
G3 X22.6193 Y21.0658 Z5.0000 I-5.0560 J-4.1549
G1 X-21.0683 Y-22.6217 Z5.0000
G2 X-21.4978 Y-22.1546 Z5.0000 I2.1929 J2.4476
G1 X22.1796 Y21.5228 Z5.0000
G3 X21.7394 Y21.9792 Z5.0000 I-4.9206 J-4.3045
G1 X-21.8442 Y-21.6044 Z5.0000
G3 X-22.2393 Y-21.1029 Z5.0000 I-1.7491 J-0.9716
G1 X21.2780 Y22.4144 Z5.0000
G1 X20.8165 Y22.8495 Z5.0000
G1 X-22.6720 Y-20.6389 Z5.0000
G2 X-23.0930 Y-20.1633 Z5.0000 I7.6527 J7.1979
G1 X20.3407 Y23.2704 Z5.0000
G1 X19.8575 Y23.6837 Z5.0000
G1 X-23.5066 Y-19.6804 Z5.0000
G1 X-23.9120 Y-19.1892 Z5.0000
G1 X19.3677 Y24.0905 Z5.0000
G1 X18.8624 Y24.4819 Z5.0000
G1 X-24.3046 Y-18.6851 Z5.0000
G2 X-24.6897 Y-18.1736 Z5.0000 I8.2799 J6.6326
G1 X18.3572 Y24.8732 Z5.0000
G3 X17.8307 Y25.2434 Z5.0000 I-4.0751 J-5.2358
G1 X-25.0670 Y-17.6544 Z5.0000
G1 X-25.4310 Y-17.1217 Z5.0000
G1 X17.3032 Y25.6125 Z5.0000
G3 X16.7616 Y25.9675 Z5.0000 I-3.9266 J-5.3996
G1 X-25.7865 Y-16.5806 Z5.0000
G2 X-26.1339 Y-16.0314 Z5.0000 I8.8629 J5.9907
G1 X16.2115 Y26.3140 Z5.0000
G3 X15.6540 Y26.6532 Z5.0000 I-3.7712 J-5.5707
G1 X-26.4694 Y-15.4703 Z5.0000
G2 X-26.7939 Y-14.8981 Z5.0000 I9.2282 J5.6119
G1 X15.0807 Y26.9765 Z5.0000
G3 X14.5066 Y27.2989 Z5.0000 I-3.6074 J-5.7513
G1 X-27.1096 Y-14.3173 Z5.0000
G1 X-27.4156 Y-13.7266 Z5.0000
G1 X13.9095 Y27.5985 Z5.0000
G1 X13.3124 Y27.8980 Z5.0000
G1 X-27.7073 Y-13.1217 Z5.0000
G2 X-27.9895 Y-12.5073 Z5.0000 I10.0217 J4.9747
G1 X12.6959 Y28.1781 Z5.0000
G1 X12.0743 Y28.4531 Z5.0000
G1 X-28.2618 Y-11.8830 Z5.0000
G1 X-28.5216 Y-11.2462 Z5.0000
G1 X11.4377 Y28.7131 Z5.0000
G1 X10.7906 Y28.9626 Z5.0000
G1 X-28.7677 Y-10.5957 Z5.0000
G2 X-29.0028 Y-9.9341 Z5.0000 I10.8360 J4.2230
G1 X10.1322 Y29.2008 Z5.0000
G1 X9.4584 Y29.4237 Z5.0000
G1 X-29.2262 Y-9.2610 Z5.0000
G1 X-29.4358 Y-8.5739 Z5.0000
G1 X8.7716 Y29.6334 Z5.0000
G3 X7.9622 Y29.7207 Z5.0000 I-0.7307 J-2.9803
G1 X-29.7212 Y-7.9628 Z5.0000
G2 X-30.0063 Y-7.3512 Z5.0000 I2.4715 J1.5244
G1 X7.1557 Y29.8108 Z5.0000
G3 X6.4271 Y29.9788 Z5.0000 I-3.0835 J-11.7112
G1 X-30.1871 Y-6.6354 Z5.0000
G1 X-30.3409 Y-5.8926 Z5.0000
G1 X5.6795 Y30.1278 Z5.0000
G3 X4.9156 Y30.2605 Z5.0000 I-2.5791 J-12.5810
G1 X-30.4781 Y-5.1332 Z5.0000
G1 X-30.5997 Y-4.3582 Z5.0000
G1 X4.1350 Y30.3765 Z5.0000
G3 X3.3366 Y30.4748 Z5.0000 I-2.0260 J-13.1722
G1 X-30.7005 Y-3.5624 Z5.0000
G1 X-30.7876 Y-2.7528 Z5.0000
G1 X2.5191 Y30.5539 Z5.0000
G3 X1.6809 Y30.6123 Z5.0000 I-1.3834 J-13.8035
G1 X-30.8462 Y-1.9149 Z5.0000
G1 X-30.8959 Y-1.0680 Z5.0000
G1 X0.8203 Y30.6483 Z5.0000
G3 X-0.0648 Y30.6598 Z5.0000 I-0.6314 J-14.5204
G1 X-30.9052 Y-0.1806 Z5.0000
G2 X-30.9006 Y0.7206 Z5.0000 I9.2828 J0.4030
G1 X-0.9768 Y30.6444 Z5.0000
G3 X-1.9183 Y30.5995 Z5.0000 I0.2700 J-15.5603
G1 X-30.8647 Y1.6531 Z5.0000
G2 X-30.7942 Y2.6202 Z5.0000 I9.9939 J-0.2423
G1 X-2.8923 Y30.5221 Z5.0000
G3 X-3.9026 Y30.4084 Z5.0000 I1.3776 J-16.7876
G1 X-30.6988 Y3.6122 Z5.0000
G1 X-30.5574 Y4.6503 Z5.0000
G1 X-4.9536 Y30.2541 Z5.0000
G3 X-6.0504 Y30.0539 Z5.0000 I2.7667 J-18.2598
G1 X-30.3687 Y5.7356 Z5.0000
G2 X-30.1340 Y6.8668 Z5.0000 I11.7661 J-1.8504
G1 X-7.1997 Y29.8012 Z5.0000
G2 X-8.1803 Y29.7172 Z5.0000 I-0.7409 J2.8844
G1 X-29.8420 Y8.0555 Z5.0000
G2 X-29.4761 Y9.3180 Z5.0000 I13.1828 J-3.1358
G1 X-9.3269 Y29.4672 Z5.0000
G3 X-10.6889 Y29.0018 Z5.0000 I4.1112 J-14.2577
G1 X-29.0101 Y10.6806 Z5.0000
G2 X-28.4158 Y12.1715 Z5.0000 I15.3398 J-5.2509
G1 X-12.1818 Y28.4055 Z5.0000
G3 X-13.8613 Y27.6227 Z5.0000 I7.2215 J-17.6855
G1 X-27.6262 Y13.8577 Z5.0000
G2 X-26.5423 Y15.8382 Z5.0000 I20.9362 J-10.1712
G1 X-15.8222 Y26.5583 Z5.0000
G3 X-18.5646 Y24.7126 Z5.0000 I14.8257 J-24.9877
G1 X-24.7353 Y18.5419 Z5.0000
G2 X-18.5646 Y24.7126 Z5.0000 I24.4761 J-18.3054
G0 X-18.5646 Y24.7126 Z14.0000
G0 X-18.5685 Y24.7096 Z14.0000
G1 X-18.5685 Y24.7096 Z4.0000
G2 X-15.8242 Y26.5572 Z4.0000 I17.5747 J-23.1415
G1 X-26.5411 Y15.8403 Z4.0000
G3 X-27.6253 Y13.8595 Z4.0000 I19.8549 J-12.1546
G1 X-13.8630 Y27.6218 Z4.0000
G2 X-12.1834 Y28.4048 Z4.0000 I8.9030 J-16.9045
G1 X-28.4151 Y12.1731 Z4.0000
G3 X-29.0097 Y10.6819 Z4.0000 I14.7613 J-6.7501
G1 X-10.6903 Y29.0012 Z4.0000
G2 X-9.3282 Y29.4667 Z4.0000 I5.4744 J-13.7935
G1 X-29.4757 Y9.3193 Z4.0000
G3 X-29.8416 Y8.0568 Z4.0000 I12.8179 J-4.3993
G1 X-8.1825 Y29.7158 Z4.0000
G2 X-7.3463 Y29.6554 Z4.0000 I0.2018 J-3.0240
G1 X-30.1338 Y6.8680 Z4.0000
G3 X-30.3685 Y5.7367 Z4.0000 I11.5322 J-2.9824
G1 X-6.5628 Y29.5423 Z4.0000
G3 X-5.4691 Y29.7394 Z4.0000 I-0.6773 J6.8917
G1 X-30.5572 Y4.6513 Z4.0000
G1 X-30.6987 Y3.6132 Z4.0000
G1 X-4.3971 Y29.9148 Z4.0000
G2 X-3.3663 Y30.0490 Z4.0000 I3.0762 J-19.6054
G1 X-30.7941 Y2.6211 Z4.0000
G3 X-30.8647 Y1.6540 Z4.0000 I9.9239 J-1.2099
G1 X-2.3730 Y30.1457 Z4.0000
G2 X-1.4179 Y30.2042 Z4.0000 I1.5900 J-18.1198
G1 X-30.9005 Y0.7215 Z4.0000
G3 X-30.9052 Y-0.1797 Z4.0000 I9.2786 J-0.4987
G1 X-0.4926 Y30.2329 Z4.0000
G2 X0.4052 Y30.2341 Z4.0000 I0.4707 J-16.9724
G1 X-30.8960 Y-1.0671 Z4.0000
G1 X-30.8463 Y-1.9140 Z4.0000
G1 X1.2775 Y30.2098 Z4.0000
G2 X2.1263 Y30.1620 Z4.0000 I-0.4843 J-16.1519
G1 X-30.7877 Y-2.7520 Z4.0000
G1 X-30.7006 Y-3.5616 Z4.0000
G1 X2.9533 Y30.0923 Z4.0000
G2 X3.7598 Y30.0022 Z4.0000 I-1.3149 J-15.4254
G1 X-30.5999 Y-4.3575 Z4.0000
G1 X-30.4782 Y-5.1325 Z4.0000
G1 X4.5471 Y29.8929 Z4.0000
G2 X5.3165 Y29.7657 Z4.0000 I-2.0440 J-14.7480
G1 X-30.3410 Y-5.8918 Z4.0000
G1 X-30.1872 Y-6.6347 Z4.0000
G1 X6.0686 Y29.6211 Z4.0000
G3 X6.9061 Y29.5620 Z4.0000 I0.5510 J1.8448
G1 X-30.0065 Y-7.3506 Z4.0000
G3 X-29.7196 Y-7.9602 Z4.0000 I2.0323 J0.5842
G1 X7.9588 Y29.7181 Z4.0000
G2 X8.7674 Y29.6302 Z4.0000 I0.1070 J-2.7780
G1 X-29.3424 Y-8.4797 Z4.0000
G2 X-28.9332 Y-8.9671 Z4.0000 I-2.3217 J-2.3646
G1 X9.4578 Y29.4239 Z4.0000
G1 X10.1315 Y29.2010 Z4.0000
G1 X-28.6712 Y-9.6017 Z4.0000
G3 X-28.4402 Y-10.2673 Z4.0000 I12.5485 J3.9803
G1 X10.7899 Y28.9628 Z4.0000
G1 X11.4371 Y28.7134 Z4.0000
G1 X-28.1967 Y-10.9204 Z4.0000
G3 X-27.9412 Y-11.5616 Z4.0000 I12.3691 J4.5574
G1 X12.0737 Y28.4533 Z4.0000
G1 X12.6953 Y28.1784 Z4.0000
G1 X-27.6721 Y-12.1890 Z4.0000
G3 X-27.3916 Y-12.8051 Z4.0000 I11.8906 J5.0421
G1 X13.3118 Y27.8983 Z4.0000
G1 X13.9089 Y27.5988 Z4.0000
G1 X-27.1001 Y-13.4102 Z4.0000
G3 X-26.7979 Y-14.0047 Z4.0000 I11.4480 J5.4447
G1 X14.5060 Y27.2992 Z4.0000
G2 X15.0802 Y26.9768 Z4.0000 I-3.0331 J-6.0741
G1 X-26.4854 Y-14.5887 Z4.0000
G3 X-26.1626 Y-15.1626 Z4.0000 I11.0120 J5.8165
G1 X15.6535 Y26.6535 Z4.0000
G2 X16.2109 Y26.3143 Z4.0000 I-3.2135 J-5.9101
G1 X-25.8281 Y-15.7247 Z4.0000
G3 X-25.4828 Y-16.2760 Z4.0000 I10.6201 J6.2676
G1 X16.7611 Y25.9679 Z4.0000
G2 X17.3027 Y25.6129 Z4.0000 I-3.3847 J-5.7548
G1 X-25.1279 Y-16.8177 Z4.0000
G3 X-24.7636 Y-17.3500 Z4.0000 I10.3190 J6.6723
G1 X17.8302 Y25.2438 Z4.0000
G2 X18.3567 Y24.8736 Z4.0000 I-3.5484 J-5.6061
G1 X-24.3899 Y-17.8730 Z4.0000
G1 X-24.0064 Y-18.3861 Z4.0000
G1 X18.8619 Y24.4823 Z4.0000
G1 X19.3672 Y24.0909 Z4.0000
G1 X-23.6117 Y-18.8880 Z4.0000
G3 X-23.2080 Y-19.3809 Z4.0000 I9.6114 J7.4592
G1 X19.8570 Y23.6841 Z4.0000
G1 X20.3403 Y23.2708 Z4.0000
G1 X-22.7954 Y-19.8649 Z4.0000
G2 X-22.3799 Y-20.3460 Z4.0000 I-4.4477 J-4.2610
G1 X20.8161 Y22.8500 Z4.0000
G1 X21.2775 Y22.4148 Z4.0000
G1 X-22.0861 Y-20.9488 Z4.0000
G3 X-21.8400 Y-21.5993 Z4.0000 I3.0158 J0.7689
G1 X21.7390 Y21.9796 Z4.0000
G2 X22.1791 Y21.5232 Z4.0000 I-4.4801 J-4.7610
G1 X-21.4942 Y-22.1501 Z4.0000
G3 X-21.0687 Y-22.6213 Z4.0000 I2.1457 J1.5101
G1 X22.6188 Y21.0663 Z4.0000
G2 X23.0452 Y20.5960 Z4.0000 I-4.6295 J-4.6254
G1 X-20.5946 Y-23.0437 Z4.0000
G1 X-20.1204 Y-23.4662 Z4.0000
G1 X23.4631 Y20.1173 Z4.0000
G2 X23.8754 Y19.6330 Z4.0000 I-4.7804 J-4.4884
G1 X-19.6299 Y-23.8723 Z4.0000
G1 X-19.1339 Y-24.2729 Z4.0000
G1 X24.2714 Y19.1324 Z4.0000
G1 X24.6673 Y18.6317 Z4.0000
G1 X-18.6291 Y-24.6648 Z4.0000
G1 X-18.1109 Y-25.0432 Z4.0000
G1 X25.0433 Y18.1110 Z4.0000
G1 X25.4170 Y17.5882 Z4.0000
G1 X-17.5915 Y-25.4204 Z4.0000
G1 X-17.0509 Y-25.7763 Z4.0000
G1 X25.7780 Y17.0525 Z4.0000
G1 X26.1292 Y16.5071 Z4.0000
G1 X-16.5102 Y-26.1323 Z4.0000
G3 X-15.9527 Y-26.4713 Z4.0000 I3.7703 J5.5718
G1 X26.4744 Y15.9558 Z4.0000
G1 X26.8026 Y15.3874 Z4.0000
G1 X-15.3891 Y-26.8043 Z4.0000
G3 X-14.8150 Y-27.1269 Z4.0000 I3.6085 J5.7501
G1 X27.1308 Y14.8189 Z4.0000
G2 X27.4360 Y14.2275 Z4.0000 I-5.9372 J-3.4383
G1 X-14.2279 Y-27.4364 Z4.0000
G3 X-13.6363 Y-27.7414 Z4.0000 I3.4367 J5.9393
G1 X27.7406 Y13.6354 Z4.0000
G2 X28.0275 Y13.0258 Z4.0000 I-6.1341 J-3.2600
G1 X-13.0250 Y-28.0267 Z4.0000
G1 X-12.4137 Y-28.3120 Z4.0000
G1 X28.3077 Y12.4094 Z4.0000
G2 X28.5751 Y11.7801 Z4.0000 I-6.3458 J-3.0680
G1 X-11.7782 Y-28.5732 Z4.0000
G1 X-11.1418 Y-28.8334 Z4.0000
G1 X28.8299 Y11.1384 Z4.0000
G2 X29.0760 Y10.4879 Z4.0000 I-6.5758 J-2.8593
G1 X-10.4850 Y-29.0732 Z4.0000
G1 X-9.8225 Y-29.3073 Z4.0000
G1 X29.3045 Y9.8198 Z4.0000
G2 X29.5272 Y9.1458 Z4.0000 I-6.8282 J-2.6303
G1 X-9.1423 Y-29.5236 Z4.0000
G1 X-8.4524 Y-29.7304 Z4.0000
G1 X29.7281 Y8.4501 Z4.0000
G2 X29.9249 Y7.7503 Z4.0000 I-7.1079 J-2.3765
G1 X-7.7462 Y-29.9208 Z4.0000
G1 X-7.0274 Y-30.0986 Z4.0000
G1 X30.0965 Y7.0253 Z4.0000
G2 X30.2643 Y6.2965 Z4.0000 I-7.4213 J-2.0921
G1 X-6.2922 Y-30.2600 Z4.0000
G1 X-5.5429 Y-30.4073 Z4.0000
G1 X30.4050 Y5.5405 Z4.0000
G2 X30.5398 Y4.7788 Z4.0000 I-7.7765 J-1.7698
G1 X-4.7747 Y-30.5358 Z4.0000
G1 X-3.9928 Y-30.6504 Z4.0000
G1 X30.6474 Y3.9897 Z4.0000
G2 X30.7445 Y3.1903 Z4.0000 I-8.1839 J-1.4002
G1 X-3.1870 Y-30.7413 Z4.0000
G1 X-2.3699 Y-30.8208 Z4.0000
G1 X30.8164 Y2.3655 Z4.0000
G2 X30.8697 Y1.5222 Z4.0000 I-8.6571 J-0.9707
G1 X-1.5205 Y-30.8680 Z4.0000
G3 X-0.6613 Y-30.9054 Z4.0000 I0.8149 J8.8288
G1 X30.9029 Y0.6588 Z4.0000
G2 X30.9046 Y-0.2361 Z4.0000 I-9.2146 J-0.4649
G1 X0.2353 Y-30.9054 Z4.0000
G3 X1.1514 Y-30.8859 Z4.0000 I0.2573 J9.4434
G1 X30.8914 Y-1.1460 Z4.0000
G1 X30.8355 Y-2.0985 Z4.0000
G1 X2.0938 Y-30.8402 Z4.0000
G3 X3.0787 Y-30.7518 Z4.0000 I-0.4174 J10.1868
G1 X30.7526 Y-3.0779 Z4.0000
G2 X30.6427 Y-4.0845 Z4.0000 I-10.4201 J0.6289
G1 X4.0912 Y-30.6360 Z4.0000
G1 X5.1418 Y-30.4820 Z4.0000
G1 X30.4758 Y-5.1480 Z4.0000
G2 X30.2660 Y-6.2544 Z4.0000 I-11.4987 J1.6077
G1 X6.2526 Y-30.2678 Z4.0000
G3 X7.4140 Y-30.0030 Z4.0000 I-2.1464 J12.0924
G1 X29.9678 Y-7.4492 Z4.0000
G2 X29.4290 Y-8.3853 Z4.0000 I-2.9784 J1.0912
G3 X28.6508 Y-9.6629 Z4.0000 I1.5104 J-1.7959
G1 X8.6393 Y-29.6744 Z4.0000
G3 X9.9469 Y-29.2633 Z4.0000 I-3.5788 J13.6710
G1 X28.1351 Y-11.0751 Z4.0000
G2 X27.4682 Y-12.6386 Z4.0000 I-22.8144 J8.8072
G1 X11.3645 Y-28.7424 Z4.0000
G3 X12.9345 Y-28.0690 Z4.0000 I-6.1491 J16.5036
G1 X26.5752 Y-14.4282 Z4.0000
G2 X25.2199 Y-16.6802 Z4.0000 I-25.7078 J13.9385
G1 X14.7265 Y-27.1735 Z4.0000
G3 X16.9616 Y-25.8351 Z4.0000 I-9.3050 J18.0738
G1 X22.2413 Y-20.5553 Z4.0000
G1 X22.1780 Y-20.6827 Z4.0000
G2 X21.0988 Y-22.5945 Z4.0000 I-3.7037 J0.8302
G0 X21.0988 Y-22.5945 Z14.0000
G0 X21.0959 Y-22.5971 Z14.0000
G1 X21.0959 Y-22.5971 Z3.0000
G3 X22.1450 Y-20.6514 Z3.0000 I-2.2813 J2.4857
G1 X16.9606 Y-25.8357 Z3.0000
G2 X14.7259 Y-27.1739 Z3.0000 I-11.5406 J16.7380
G1 X22.2076 Y-19.6922 Z3.0000
G2 X22.5480 Y-18.8453 Z3.0000 I1.5090 J-0.1148
G3 X23.8739 Y-17.1293 Z3.0000 I-18.0412 J15.3094
G1 X12.9339 Y-28.0693 Z3.0000
G0 X12.9339 Y-28.0693 Z14.0000
G0 X25.7629 Y-15.2403 Z14.0000
G1 X25.7629 Y-15.2403 Z3.0000
G3 X26.0999 Y-14.9032 Z3.0000 I-0.0601 J0.3972
G1 X25.7629 Y-15.2403 Z3.0000
G3 X24.6930 Y-15.9329 Z3.0000 I0.2794 J-1.6041
G2 X23.8739 Y-17.1293 Z3.0000 I-20.1168 J12.8958
G1 X12.9339 Y-28.0693 Z3.0000
G2 X11.3639 Y-28.7426 Z3.0000 I-7.7184 J15.8296
G1 X25.9878 Y-14.1187 Z3.0000
G2 X26.1447 Y-13.4187 Z3.0000 I1.4868 J0.0345
G1 X26.4882 Y-12.7217 Z3.0000
G1 X9.9464 Y-29.2635 Z3.0000
G2 X8.6388 Y-29.6745 Z3.0000 I-4.8861 J13.2596
G1 X27.2029 Y-11.1104 Z3.0000
G2 X27.7098 Y-9.8667 Z3.0000 I8.1417 J-2.5933
G2 X28.2626 Y-9.3116 Z3.0000 I1.3647 J-0.8061
G3 X29.9691 Y-7.4476 Z3.0000 I-1.5108 J3.0964
G1 X7.4136 Y-30.0031 Z3.0000
G2 X6.2522 Y-30.2679 Z3.0000 I-3.3076 J11.8273
G1 X30.2660 Y-6.2540 Z3.0000
G3 X30.4759 Y-5.1476 Z3.0000 I-11.2886 J2.7139
G1 X5.1414 Y-30.4821 Z3.0000
G1 X4.0908 Y-30.6361 Z3.0000
G1 X30.6427 Y-4.0841 Z3.0000
G3 X30.7527 Y-3.0776 Z3.0000 I-10.3098 J1.6352
G1 X3.0784 Y-30.7519 Z3.0000
G2 X2.0934 Y-30.8402 Z3.0000 I-1.4022 J10.0983
G1 X30.8355 Y-2.0981 Z3.0000
G1 X30.8914 Y-1.1456 Z3.0000
G1 X1.1511 Y-30.8860 Z3.0000
G2 X0.2350 Y-30.9054 Z3.0000 I-0.6586 J9.4237
G1 X30.9046 Y-0.2358 Z3.0000
G3 X30.9029 Y0.6591 Z3.0000 I-9.2161 J0.4299
G1 X-0.6616 Y-30.9054 Z3.0000
G2 X-1.5208 Y-30.8680 Z3.0000 I-0.0441 J8.8661
G1 X30.8697 Y1.5226 Z3.0000
G3 X30.8164 Y2.3658 Z3.0000 I-8.7103 J-0.1275
G1 X-2.3702 Y-30.8208 Z3.0000
G1 X-3.1873 Y-30.7413 Z3.0000
G1 X30.7445 Y3.1906 Z3.0000
G3 X30.6474 Y3.9900 Z3.0000 I-8.2809 J-0.6008
G1 X-3.9930 Y-30.6504 Z3.0000
G1 X-4.7750 Y-30.5358 Z3.0000
G1 X30.5398 Y4.7791 Z3.0000
G3 X30.4049 Y5.5408 Z3.0000 I-7.9113 J-1.0082
G1 X-5.5431 Y-30.4072 Z3.0000
G1 X-6.2925 Y-30.2600 Z3.0000
G1 X30.2643 Y6.2967 Z3.0000
G3 X30.0965 Y7.0256 Z3.0000 I-7.5889 J-1.3634
G1 X-7.0277 Y-30.0986 Z3.0000
G1 X-7.7464 Y-29.9207 Z3.0000
G1 X29.9248 Y7.7505 Z3.0000
G3 X29.7280 Y8.4503 Z3.0000 I-7.3046 J-1.6768
G1 X-8.4526 Y-29.7303 Z3.0000
G1 X-9.1425 Y-29.5236 Z3.0000
G1 X29.5272 Y9.1461 Z3.0000
G3 X29.3044 Y9.8200 Z3.0000 I-7.0507 J-1.9565
G1 X-9.8227 Y-29.3072 Z3.0000
G1 X-10.4853 Y-29.0731 Z3.0000
G1 X29.0759 Y10.4881 Z3.0000
G3 X28.8299 Y11.1386 Z3.0000 I-6.8218 J-2.2089
G1 X-11.1421 Y-28.8333 Z3.0000
G1 X-11.7785 Y-28.5731 Z3.0000
G1 X28.5750 Y11.7804 Z3.0000
G3 X28.3076 Y12.4096 Z3.0000 I-6.6130 J-2.4388
G1 X-12.4139 Y-28.3119 Z3.0000
G1 X-13.0252 Y-28.0266 Z3.0000
G1 X28.0274 Y13.0260 Z3.0000
G3 X27.7404 Y13.6357 Z3.0000 I-6.4210 J-2.6505
G1 X-13.6365 Y-27.7413 Z3.0000
G2 X-14.2281 Y-27.4363 Z3.0000 I2.8453 J6.2443
G1 X27.4359 Y14.2277 Z3.0000
G3 X27.1307 Y14.8191 Z3.0000 I-6.2428 J-2.8472
G1 X-14.8152 Y-27.1268 Z3.0000
G2 X-15.3893 Y-26.8042 Z3.0000 I3.0346 J6.0726
G1 X26.8025 Y15.3876 Z3.0000
G1 X26.4743 Y15.9560 Z3.0000
G1 X-15.9529 Y-26.4712 Z3.0000
G2 X-16.5104 Y-26.1321 Z3.0000 I3.2128 J5.9108
G1 X26.1290 Y16.5073 Z3.0000
G1 X25.7778 Y17.0527 Z3.0000
G1 X-17.0511 Y-25.7762 Z3.0000
G1 X-17.5917 Y-25.4202 Z3.0000
G1 X25.4169 Y17.5884 Z3.0000
G1 X25.0431 Y18.1112 Z3.0000
G1 X-18.1111 Y-25.0430 Z3.0000
G1 X-18.6293 Y-24.6646 Z3.0000
G1 X24.6672 Y18.6319 Z3.0000
G1 X24.2712 Y19.1326 Z3.0000
G1 X-19.1340 Y-24.2727 Z3.0000
G1 X-19.6301 Y-23.8722 Z3.0000
G1 X23.8753 Y19.6332 Z3.0000
G3 X23.4629 Y20.1175 Z3.0000 I-5.1927 J-4.0042
G1 X-20.1205 Y-23.4660 Z3.0000
G1 X-20.5947 Y-23.0436 Z3.0000
G1 X23.0450 Y20.5962 Z3.0000
G3 X22.6187 Y21.0664 Z3.0000 I-5.0557 J-4.1552
G1 X-21.0689 Y-22.6211 Z3.0000
G2 X-21.4937 Y-22.1493 Z3.0000 I1.5890 J1.8579
G1 X22.1790 Y21.5234 Z3.0000
G3 X21.7388 Y21.9798 Z3.0000 I-4.9201 J-4.3046
G1 X-21.8399 Y-21.5989 Z3.0000
G2 X-22.0809 Y-20.9433 Z3.0000 I2.2777 J1.2093
G1 X21.2774 Y22.4150 Z3.0000
G1 X20.8159 Y22.8501 Z3.0000
G1 X-22.1904 Y-20.1562 Z3.0000
G3 X-22.2778 Y-19.3470 Z3.0000 I-1.9128 J0.2027
G1 X20.3401 Y23.2709 Z3.0000
G1 X19.8568 Y23.6843 Z3.0000
G1 X-22.6041 Y-18.7766 Z3.0000
G1 X-23.0050 Y-18.2810 Z3.0000
G1 X19.3670 Y24.0910 Z3.0000
G1 X18.8617 Y24.4824 Z3.0000
G1 X-23.3963 Y-17.7756 Z3.0000
G2 X-23.7792 Y-17.2620 Z3.0000 I8.2819 J6.5733
G1 X18.3565 Y24.8738 Z3.0000
G3 X17.8300 Y25.2439 Z3.0000 I-4.0748 J-5.2360
G1 X-24.1525 Y-16.7386 Z3.0000
G2 X-24.5129 Y-16.2024 Z3.0000 I8.6497 J6.2026
G1 X17.3025 Y25.6130 Z3.0000
G3 X16.7609 Y25.9680 Z3.0000 I-3.9263 J-5.3999
G1 X-24.8967 Y-15.6896 Z3.0000
G3 X-25.4437 Y-15.3400 Z3.0000 I-0.9090 J-0.8196
G1 X16.2107 Y26.3145 Z3.0000
G3 X15.6533 Y26.6536 Z3.0000 I-3.7709 J-5.5710
G1 X-26.0473 Y-15.0470 Z3.0000
G2 X-26.0511 Y-14.5565 Z3.0000 I0.4573 J0.2487
G3 X-25.9857 Y-14.0887 Z3.0000 I-1.0928 J0.3912
G1 X15.0800 Y26.9769 Z3.0000
G3 X14.5058 Y27.2993 Z3.0000 I-3.6071 J-5.7517
G1 X-26.1670 Y-13.3734 Z3.0000
G1 X-26.4630 Y-12.7728 Z3.0000
G1 X13.9087 Y27.5989 Z3.0000
G1 X13.3116 Y27.8984 Z3.0000
G1 X-26.7482 Y-12.1614 Z3.0000
G2 X-27.0229 Y-11.5395 Z3.0000 I10.1235 J4.8419
G1 X12.6951 Y28.1785 Z3.0000
G1 X12.0734 Y28.4534 Z3.0000
G1 X-27.2865 Y-10.9065 Z3.0000
G1 X-27.5353 Y-10.2587 Z3.0000
G1 X11.4368 Y28.7135 Z3.0000
G1 X10.7897 Y28.9629 Z3.0000
G1 X-27.8465 Y-9.6733 Z3.0000
G3 X-28.3368 Y-9.2670 Z3.0000 I-1.2349 J-0.9912
G1 X10.1313 Y29.2011 Z3.0000
G1 X9.4575 Y29.4240 Z3.0000
G1 X-28.8793 Y-8.9129 Z3.0000
G2 X-29.3455 Y-8.4825 Z3.0000 I1.0620 J1.6177
G1 X8.7658 Y29.6289 Z3.0000
G3 X7.9561 Y29.7158 Z3.0000 I-0.6704 J-2.4314
G1 X-29.7182 Y-7.9585 Z3.0000
G2 X-30.0048 Y-7.3485 Z3.0000 I1.7116 J1.1766
G1 X6.8717 Y29.5280 Z3.0000
G3 X6.0679 Y29.1319 Z3.0000 I1.1890 J-3.4267
G2 X5.3845 Y28.9374 Z3.0000 I-0.7225 J1.2406
G1 X-30.1873 Y-6.6344 Z3.0000
G1 X-30.3411 Y-5.8916 Z3.0000
G1 X4.5749 Y29.0244 Z3.0000
G3 X3.7914 Y29.1375 Z3.0000 I-2.2334 J-12.7063
G1 X-30.4783 Y-5.1322 Z3.0000
G1 X-30.5999 Y-4.3572 Z3.0000
G1 X2.9885 Y29.2312 Z3.0000
G3 X2.1650 Y29.3044 Z3.0000 I-1.6163 J-13.5272
G1 X-30.7006 Y-3.5613 Z3.0000
G1 X-30.7877 Y-2.7518 Z3.0000
G1 X1.3339 Y29.3698 Z3.0000
G2 X0.6816 Y29.6142 Z3.0000 I0.1552 J1.4069
G1 X-30.8463 Y-1.9137 Z3.0000
G1 X-30.8960 Y-1.0668 Z3.0000
G1 X0.2002 Y30.0293 Z3.0000
G3 X-0.2601 Y29.9888 Z3.0000 I-0.2010 J-0.3518
G2 X-1.3601 Y29.3657 Z3.0000 I-1.2891 J0.9931
G1 X-30.9052 Y-0.1794 Z3.0000
G2 X-30.9005 Y0.7219 Z3.0000 I9.2834 J0.4024
G1 X-2.3288 Y29.2936 Z3.0000
G3 X-3.3219 Y29.1971 Z3.0000 I1.0333 J-15.7914
G1 X-30.8647 Y1.6543 Z3.0000
G2 X-30.7941 Y2.6215 Z3.0000 I9.9946 J-0.2429
G1 X-4.3565 Y29.0591 Z3.0000
G2 X-5.3101 Y28.9308 Z3.0000 I-1.2459 J5.6505
G1 X-5.3754 Y28.9369 Z3.0000
G1 X-30.6987 Y3.6136 Z3.0000
G1 X-30.5572 Y4.6517 Z3.0000
G1 X-6.0735 Y29.1354 Z3.0000
G3 X-6.6625 Y29.4430 Z3.0000 I-1.5346 J-2.2207
G1 X-30.3684 Y5.7371 Z3.0000
G2 X-30.1337 Y6.8684 Z3.0000 I11.7671 J-1.8513
G1 X-7.3444 Y29.6576 Z3.0000
G3 X-8.1821 Y29.7165 Z3.0000 I-0.5771 J-2.2210
G1 X-29.8415 Y8.0572 Z3.0000
G2 X-29.4755 Y9.3198 Z3.0000 I13.1841 J-3.1371
G1 X-9.3287 Y29.4666 Z3.0000
G3 X-10.6909 Y29.0010 Z3.0000 I4.1127 J-14.2594
G1 X-29.0095 Y10.6824 Z3.0000
G2 X-28.4148 Y12.1737 Z3.0000 I15.3618 J-5.2617
G1 X-12.1840 Y28.4046 Z3.0000
G3 X-13.8637 Y27.6215 Z3.0000 I7.2240 J-17.6882
G1 X-27.6250 Y13.8601 Z3.0000
G2 X-26.5407 Y15.8410 Z3.0000 I20.9401 J-10.1747
G1 X-15.8250 Y26.5568 Z3.0000
G3 X-18.5699 Y24.7085 Z3.0000 I14.8322 J-24.9898
G1 X-24.7323 Y18.5460 Z3.0000
G2 X-18.5699 Y24.7085 Z3.0000 I24.4722 J-18.3098
G0 X-18.5699 Y24.7085 Z14.0000
G0 X-18.5691 Y24.7090 Z14.0000
G1 X-18.5691 Y24.7090 Z2.0000
G2 X-15.8246 Y26.5570 Z2.0000 I17.5758 J-23.1415
G1 X-26.5409 Y15.8406 Z2.0000
G3 X-27.6251 Y13.8598 Z2.0000 I19.8554 J-12.1551
G1 X-13.8633 Y27.6216 Z2.0000
G2 X-12.1837 Y28.4047 Z2.0000 I8.9033 J-16.9048
G1 X-28.4149 Y12.1734 Z2.0000
G3 X-29.0096 Y10.6821 Z2.0000 I14.7640 J-6.7515
G1 X-10.6906 Y29.0011 Z2.0000
G2 X-9.3285 Y29.4666 Z2.0000 I5.4746 J-13.7937
G1 X-29.4756 Y9.3195 Z2.0000
G3 X-29.8415 Y8.0570 Z2.0000 I12.8181 J-4.3995
G1 X-8.1814 Y29.7171 Z2.0000
G2 X-7.3450 Y29.6569 Z2.0000 I0.1895 J-3.2056
G1 X-30.1337 Y6.8682 Z2.0000
G3 X-30.3684 Y5.7368 Z2.0000 I11.5323 J-2.9825
G1 X-6.6594 Y29.4459 Z2.0000
G2 X-6.0827 Y29.1260 Z2.0000 I-0.7063 J-1.9529
G1 X-30.5572 Y4.6515 Z2.0000
G1 X-30.6987 Y3.6134 Z2.0000
G1 X-5.5894 Y28.7226 Z2.0000
G2 X-5.1853 Y28.2302 Z2.0000 I-1.8623 J-1.9406
G1 X-30.7941 Y2.6213 Z2.0000
G3 X-30.8647 Y1.6542 Z2.0000 I9.9240 J-1.2100
G1 X-4.8677 Y27.6511 Z2.0000
G2 X-4.6507 Y26.9715 Z2.0000 I-2.7187 J-1.2425
G1 X-30.9005 Y0.7217 Z2.0000
G3 X-30.9052 Y-0.1796 Z2.0000 I9.2787 J-0.4988
G1 X-4.5850 Y26.1406 Z2.0000
G1 X-4.5850 Y25.2440 Z2.0000
G1 X-30.8960 Y-1.0670 Z2.0000
G1 X-30.8463 Y-1.9139 Z2.0000
G1 X-4.5850 Y24.3474 Z2.0000
G1 X-4.5850 Y23.4508 Z2.0000
G1 X-30.7877 Y-2.7519 Z2.0000
G1 X-30.7006 Y-3.5615 Z2.0000
G1 X-4.5850 Y22.5542 Z2.0000
G1 X-4.5850 Y21.6576 Z2.0000
G1 X-30.5999 Y-4.3573 Z2.0000
G1 X-30.4783 Y-5.1323 Z2.0000
G1 X-4.5850 Y20.7609 Z2.0000
G1 X-4.5850 Y19.8643 Z2.0000
G1 X-30.3411 Y-5.8917 Z2.0000
G1 X-30.1873 Y-6.6345 Z2.0000
G1 X-4.5850 Y18.9677 Z2.0000
G1 X-4.5850 Y18.0711 Z2.0000
G1 X-30.0057 Y-7.3496 Z2.0000
G3 X-29.7187 Y-7.9592 Z2.0000 I2.0114 J0.5745
G1 X-4.5850 Y17.1745 Z2.0000
G1 X-4.5850 Y16.2779 Z2.0000
G1 X-29.3435 Y-8.4807 Z2.0000
G3 X-28.8807 Y-8.9144 Z2.0000 I2.0499 J1.7234
G1 X-4.5850 Y15.3813 Z2.0000
G1 X-4.5850 Y14.4847 Z2.0000
G1 X-28.3323 Y-9.2626 Z2.0000
G3 X-27.6894 Y-9.5163 Z2.0000 I1.3366 J2.4461
G1 X-4.5850 Y13.5881 Z2.0000
G1 X-4.5850 Y12.6914 Z2.0000
G1 X-26.9132 Y-9.6368 Z2.0000
G3 X-25.8945 Y-9.5147 Z2.0000 I0.1336 J3.1969
G1 X-4.5850 Y11.7948 Z2.0000
G1 X-4.5850 Y10.8982 Z2.0000
G1 X-24.1072 Y-8.6240 Z2.0000
G1 X-21.9858 Y-7.3992 Z2.0000
G1 X-4.5850 Y10.0016 Z2.0000
G1 X-4.5850 Y9.1050 Z2.0000
G1 X-19.8644 Y-6.1744 Z2.0000
G1 X-17.7430 Y-4.9496 Z2.0000
G1 X-4.5850 Y8.2084 Z2.0000
G2 X-4.5954 Y7.3013 Z2.0000 I-10.3925 J-0.3341
G1 X-15.6216 Y-3.7248 Z2.0000
G1 X-13.5002 Y-2.5000 Z2.0000
G1 X-4.6778 Y6.3224 Z2.0000
G2 X-4.9181 Y5.1854 Z2.0000 I-5.6732 J0.6056
G1 X-11.3788 Y-1.2753 Z2.0000
G1 X-9.2574 Y-0.0505 Z2.0000
G1 X-5.5026 Y3.7043 Z2.0000
G2 X-9.2574 Y-0.0505 Z2.0000 I-7.6018 J3.8470
G0 X-9.2574 Y-0.0505 Z14.0000
G0 X-0.3811 Y-0.1402 Z14.0000
G1 X-0.3811 Y-0.1402 Z2.0000
G3 X0.3995 Y0.0795 Z2.0000 I0.3819 J0.1397
G3 X0.1402 Y0.3811 Z2.0000 I-0.3942 J-0.0766
G1 X-0.3811 Y-0.1402 Z2.0000
G2 X0.1402 Y0.3811 Z2.0000 I0.3795 J0.1418
G0 X0.1402 Y0.3811 Z14.0000
G0 X4.7822 Y27.4383 Z14.0000
G1 X4.7822 Y27.4383 Z2.0000
G3 X4.5864 Y26.3459 Z2.0000 I3.0367 J-1.1081
G1 X7.9573 Y29.7168 Z2.0000
G2 X8.7667 Y29.6296 Z2.0000 I0.1241 J-2.6482
G1 X4.5850 Y25.4479 Z2.0000
G1 X4.5850 Y24.5513 Z2.0000
G1 X9.4576 Y29.4239 Z2.0000
G1 X10.1314 Y29.2011 Z2.0000
G1 X4.5850 Y23.6547 Z2.0000
G1 X4.5850 Y22.7581 Z2.0000
G1 X10.7898 Y28.9629 Z2.0000
G1 X11.4370 Y28.7134 Z2.0000
G1 X4.5850 Y21.8614 Z2.0000
G1 X4.5850 Y20.9648 Z2.0000
G1 X12.0736 Y28.4534 Z2.0000
G1 X12.6952 Y28.1784 Z2.0000
G1 X4.5850 Y20.0682 Z2.0000
G1 X4.5850 Y19.1716 Z2.0000
G1 X13.3117 Y27.8983 Z2.0000
G1 X13.9088 Y27.5988 Z2.0000
G1 X4.5850 Y18.2750 Z2.0000
G1 X4.5850 Y17.3784 Z2.0000
G1 X14.5059 Y27.2993 Z2.0000
G2 X15.0801 Y26.9769 Z2.0000 I-3.0329 J-6.0739
G1 X4.5850 Y16.4818 Z2.0000
G1 X4.5850 Y15.5852 Z2.0000
G1 X15.6534 Y26.6535 Z2.0000
G2 X16.2109 Y26.3144 Z2.0000 I-3.2135 J-5.9101
G1 X4.5850 Y14.6886 Z2.0000
G1 X4.5850 Y13.7919 Z2.0000
G1 X16.7610 Y25.9679 Z2.0000
G2 X17.3026 Y25.6129 Z2.0000 I-3.3847 J-5.7549
G1 X4.5850 Y12.8953 Z2.0000
G1 X4.5850 Y11.9987 Z2.0000
G1 X17.8301 Y25.2438 Z2.0000
G2 X18.3566 Y24.8737 Z2.0000 I-3.5485 J-5.6064
G1 X4.5850 Y11.1021 Z2.0000
G1 X4.5850 Y10.2055 Z2.0000
G1 X18.8618 Y24.4823 Z2.0000
G1 X19.3671 Y24.0910 Z2.0000
G1 X4.5850 Y9.3089 Z2.0000
G1 X4.5850 Y8.4123 Z2.0000
G1 X19.8569 Y23.6842 Z2.0000
G1 X20.3402 Y23.2709 Z2.0000
G1 X4.5860 Y7.5167 Z2.0000
G3 X4.6325 Y6.6665 Z2.0000 I4.8820 J-0.1598
G1 X20.8160 Y22.8500 Z2.0000
G1 X21.2774 Y22.4149 Z2.0000
G1 X4.7493 Y5.8868 Z2.0000
G3 X4.9245 Y5.1653 Z2.0000 I4.2106 J0.6404
G1 X21.7389 Y21.9797 Z2.0000
G2 X22.1791 Y21.5233 Z2.0000 I-4.4803 J-4.7613
G1 X5.1495 Y4.4937 Z2.0000
G3 X5.4184 Y3.8660 Z2.0000 I3.7218 J1.2230
G1 X22.6188 Y21.0664 Z2.0000
G2 X23.0451 Y20.5961 Z2.0000 I-4.6294 J-4.6254
G1 X5.7270 Y3.2780 Z2.0000
G1 X6.0759 Y2.7303 Z2.0000
G1 X23.4630 Y20.1174 Z2.0000
G2 X23.8754 Y19.6331 Z2.0000 I-4.7804 J-4.4884
G1 X6.4615 Y2.2192 Z2.0000
G3 X6.8807 Y1.7419 Z2.0000 I2.9377 J2.1574
G1 X24.2713 Y19.1325 Z2.0000
G1 X24.6673 Y18.6318 Z2.0000
G1 X7.3331 Y1.2976 Z2.0000
G3 X7.8186 Y0.8865 Z2.0000 I2.5923 J2.5691
G1 X25.0432 Y18.1111 Z2.0000
G1 X25.4170 Y17.5883 Z2.0000
G1 X8.3380 Y0.5093 Z2.0000
G3 X8.8881 Y0.1628 Z2.0000 I4.2434 J6.1262
G1 X25.7779 Y17.0526 Z2.0000
G1 X26.1291 Y16.5072 Z2.0000
G1 X9.4565 Y-0.1654 Z2.0000
G1 X10.0249 Y-0.4936 Z2.0000
G1 X26.4744 Y15.9559 Z2.0000
G1 X26.8026 Y15.3875 Z2.0000
G1 X10.5934 Y-0.8218 Z2.0000
G1 X11.1618 Y-1.1500 Z2.0000
G1 X27.1308 Y14.8190 Z2.0000
G2 X27.4360 Y14.2276 Z2.0000 I-5.9377 J-3.4386
G1 X11.7302 Y-1.4781 Z2.0000
G1 X12.2986 Y-1.8063 Z2.0000
G1 X27.7405 Y13.6355 Z2.0000
G2 X28.0275 Y13.0259 Z2.0000 I-6.1341 J-3.2601
G1 X12.8671 Y-2.1345 Z2.0000
G1 X13.4355 Y-2.4627 Z2.0000
G1 X28.3076 Y12.4095 Z2.0000
G2 X28.5750 Y11.7802 Z2.0000 I-6.3457 J-3.0680
G1 X14.0039 Y-2.7909 Z2.0000
G1 X14.5724 Y-3.1191 Z2.0000
G1 X28.8299 Y11.1385 Z2.0000
G2 X29.0760 Y10.4880 Z2.0000 I-6.5757 J-2.8593
G1 X15.1408 Y-3.4472 Z2.0000
G1 X15.7092 Y-3.7754 Z2.0000
G1 X29.3045 Y9.8199 Z2.0000
G2 X29.5272 Y9.1460 Z2.0000 I-6.8281 J-2.6303
G1 X16.2776 Y-4.1036 Z2.0000
G1 X16.8461 Y-4.4318 Z2.0000
G1 X29.7280 Y8.4502 Z2.0000
G2 X29.9248 Y7.7504 Z2.0000 I-7.1079 J-2.3765
G1 X17.4145 Y-4.7600 Z2.0000
G1 X17.9829 Y-5.0881 Z2.0000
G1 X30.0965 Y7.0254 Z2.0000
G2 X30.2643 Y6.2966 Z2.0000 I-7.4212 J-2.0921
G1 X18.5514 Y-5.4163 Z2.0000
G1 X19.1198 Y-5.7445 Z2.0000
G1 X30.4049 Y5.5406 Z2.0000
G2 X30.5398 Y4.7789 Z2.0000 I-7.7764 J-1.7699
G1 X19.6882 Y-6.0727 Z2.0000
G1 X20.2566 Y-6.4009 Z2.0000
G1 X30.6474 Y3.9899 Z2.0000
G2 X30.7445 Y3.1904 Z2.0000 I-8.1838 J-1.4002
G1 X20.8251 Y-6.7291 Z2.0000
G1 X21.3935 Y-7.0572 Z2.0000
G1 X30.8164 Y2.3657 Z2.0000
G2 X30.8697 Y1.5224 Z2.0000 I-8.6570 J-0.9708
G1 X21.9619 Y-7.3854 Z2.0000
G1 X22.5304 Y-7.7136 Z2.0000
G1 X30.9029 Y0.6590 Z2.0000
G2 X30.9046 Y-0.2359 Z2.0000 I-9.2146 J-0.4649
G1 X23.0988 Y-8.0418 Z2.0000
G1 X23.6672 Y-8.3700 Z2.0000
G1 X30.8914 Y-1.1458 Z2.0000
G1 X30.8355 Y-2.0983 Z2.0000
G1 X24.2356 Y-8.6982 Z2.0000
G1 X24.8041 Y-9.0263 Z2.0000
G1 X30.7526 Y-3.0778 Z2.0000
G2 X30.6427 Y-4.0843 Z2.0000 I-10.4198 J0.6288
G1 X25.3857 Y-9.3413 Z2.0000
G3 X26.0638 Y-9.5598 Z2.0000 I1.2976 J2.8662
G1 X30.4758 Y-5.1478 Z2.0000
G2 X30.2660 Y-6.2542 Z2.0000 I-11.4986 J1.6076
G1 X26.8838 Y-9.6364 Z2.0000
G3 X28.0086 Y-9.4083 Z2.0000 I-0.0711 J3.2372
G1 X29.9683 Y-7.4486 Z2.0000
G2 X28.0086 Y-9.4083 Z2.0000 I-3.1516 J1.1919
G0 X28.0086 Y-9.4083 Z14.0000
G0 X25.2950 Y-14.8117 Z14.0000
G1 X25.2950 Y-14.8117 Z2.0000
G3 X25.7646 Y-15.2387 Z2.0000 I0.4024 J-0.0292
G1 X26.1007 Y-14.9026 Z2.0000
G2 X25.7646 Y-15.2387 Z2.0000 I-0.3966 J0.0604
G0 X25.7646 Y-15.2387 Z14.0000
G0 X21.0974 Y-22.5957 Z14.0000
G1 X21.0974 Y-22.5957 Z2.0000
G3 X22.1440 Y-20.6525 Z2.0000 I-2.2761 J2.4793
G1 X16.9611 Y-25.8354 Z2.0000
G2 X14.7262 Y-27.1737 Z2.0000 I-11.5403 J16.7366
G1 X22.1749 Y-19.7250 Z2.0000
G3 X22.0124 Y-18.9909 Z2.0000 I-2.6917 J-0.2108
G1 X12.9342 Y-28.0691 Z2.0000
G2 X11.3642 Y-28.7425 Z2.0000 I-7.7187 J15.8299
G1 X21.7327 Y-18.3740 Z2.0000
G3 X21.3616 Y-17.8485 Z2.0000 I-2.3887 J-1.2928
G1 X9.9467 Y-29.2634 Z2.0000
G2 X8.6390 Y-29.6744 Z2.0000 I-4.8863 J13.2598
G1 X20.9058 Y-17.4076 Z2.0000
G3 X20.3649 Y-17.0520 Z2.0000 I-2.3607 J-3.0011
G1 X7.4138 Y-30.0030 Z2.0000
G2 X6.2524 Y-30.2678 Z2.0000 I-3.3077 J11.8274
G1 X19.7965 Y-16.7238 Z2.0000
G1 X19.2280 Y-16.3956 Z2.0000
G1 X5.1416 Y-30.4820 Z2.0000
G1 X4.0910 Y-30.6360 Z2.0000
G1 X18.6596 Y-16.0674 Z2.0000
G1 X18.0912 Y-15.7392 Z2.0000
G1 X3.0786 Y-30.7518 Z2.0000
G2 X2.0936 Y-30.8402 Z2.0000 I-1.4023 J10.0984
G1 X17.5227 Y-15.4111 Z2.0000
G1 X16.9543 Y-15.0829 Z2.0000
G1 X1.1512 Y-30.8859 Z2.0000
G2 X0.2351 Y-30.9054 Z2.0000 I-0.6587 J9.4238
G1 X16.3859 Y-14.7547 Z2.0000
G1 X15.8175 Y-14.4265 Z2.0000
G1 X-0.6615 Y-30.9054 Z2.0000
G2 X-1.5207 Y-30.8680 Z2.0000 I-0.0442 J8.8661
G1 X15.2490 Y-14.0983 Z2.0000
G1 X14.6806 Y-13.7701 Z2.0000
G1 X-2.3701 Y-30.8208 Z2.0000
G1 X-3.1871 Y-30.7413 Z2.0000
G1 X14.1122 Y-13.4420 Z2.0000
G1 X13.5437 Y-13.1138 Z2.0000
G1 X-3.9929 Y-30.6504 Z2.0000
G1 X-4.7749 Y-30.5358 Z2.0000
G1 X12.9753 Y-12.7856 Z2.0000
G1 X12.4069 Y-12.4574 Z2.0000
G1 X-5.5430 Y-30.4073 Z2.0000
G1 X-6.2923 Y-30.2600 Z2.0000
G1 X11.8384 Y-12.1292 Z2.0000
G1 X11.2700 Y-11.8011 Z2.0000
G1 X-7.0275 Y-30.0986 Z2.0000
G1 X-7.7463 Y-29.9208 Z2.0000
G1 X10.7016 Y-11.4729 Z2.0000
G1 X10.1332 Y-11.1447 Z2.0000
G1 X-8.4525 Y-29.7303 Z2.0000
G1 X-9.1424 Y-29.5236 Z2.0000
G1 X9.5647 Y-10.8165 Z2.0000
G1 X8.9963 Y-10.4883 Z2.0000
G1 X-9.8226 Y-29.3072 Z2.0000
G1 X-10.4851 Y-29.0732 Z2.0000
G1 X8.4279 Y-10.1601 Z2.0000
G1 X7.8594 Y-9.8320 Z2.0000
G1 X-11.1419 Y-28.8334 Z2.0000
G1 X-11.7783 Y-28.5731 Z2.0000
G1 X7.2910 Y-9.5038 Z2.0000
G1 X6.7226 Y-9.1756 Z2.0000
G1 X-12.4138 Y-28.3120 Z2.0000
G1 X-13.0251 Y-28.0267 Z2.0000
G1 X6.1542 Y-8.8474 Z2.0000
G1 X5.5857 Y-8.5192 Z2.0000
G1 X-13.6364 Y-27.7414 Z2.0000
G2 X-14.2280 Y-27.4364 Z2.0000 I2.8452 J6.2443
G1 X5.0173 Y-8.1910 Z2.0000
G1 X4.4489 Y-7.8629 Z2.0000
G1 X-14.8151 Y-27.1268 Z2.0000
G2 X-15.3892 Y-26.8043 Z2.0000 I3.0345 J6.0726
G1 X3.8671 Y-7.5480 Z2.0000
G3 X3.2565 Y-7.2620 Z2.0000 I-1.9400 J-3.3465
G1 X-15.9527 Y-26.4713 Z2.0000
G2 X-16.5103 Y-26.1322 Z2.0000 I3.2128 J5.9109
G1 X2.6034 Y-7.0185 Z2.0000
G3 X1.9021 Y-6.8232 Z2.0000 I-1.4669 J-3.9102
G1 X-17.0510 Y-25.7763 Z2.0000
G1 X-17.5916 Y-25.4203 Z2.0000
G1 X1.1449 Y-6.6838 Z2.0000
G3 X0.3205 Y-6.6116 Z2.0000 I-0.8249 J-4.6754
G1 X-18.1110 Y-25.0431 Z2.0000
G1 X-18.6292 Y-24.6647 Z2.0000
G1 X-0.5878 Y-6.6233 Z2.0000
G3 X-1.6224 Y-6.7612 Z2.0000 I0.1585 J-5.1376
G1 X-19.1339 Y-24.2728 Z2.0000
G1 X-19.6300 Y-23.8723 Z2.0000
G1 X-2.8560 Y-7.0982 Z2.0000
G3 X-4.6106 Y-7.9563 Z2.0000 I3.1722 J-8.7101
G1 X-20.1205 Y-23.4661 Z2.0000
G1 X-20.5946 Y-23.0436 Z2.0000
G1 X-6.7320 Y-9.1810 Z2.0000
G1 X-8.8534 Y-10.4058 Z2.0000
G1 X-21.0688 Y-22.6212 Z2.0000
G2 X-21.4939 Y-22.1497 Z2.0000 I1.6560 J1.9204
G1 X-10.9748 Y-11.6306 Z2.0000
G1 X-13.0963 Y-12.8554 Z2.0000
G1 X-21.8416 Y-21.6008 Z2.0000
G2 X-22.0826 Y-20.9451 Z2.0000 I2.6280 J1.3380
G1 X-15.2177 Y-14.0802 Z2.0000
G1 X-17.3391 Y-15.3050 Z2.0000
G1 X-22.1922 Y-20.1581 Z2.0000
G2 X-22.0550 Y-19.1244 Z2.0000 I3.0326 J0.1237
G1 X-19.4605 Y-16.5298 Z2.0000
G3 X-20.7852 Y-17.3157 Z2.0000 I4.7194 J-9.4642
G3 X-22.0550 Y-19.1244 Z2.0000 I1.9835 J-2.7427
G0 X-22.0550 Y-19.1244 Z14.0000
G0 X-26.0471 Y-15.0469 Z14.0000
G1 X-26.0471 Y-15.0469 Z2.0000
G3 X-25.3349 Y-14.6568 Z2.0000 I0.3486 J0.2087
G3 X-25.4898 Y-14.4896 Z2.0000 I-0.3530 J-0.1718
G1 X-26.0471 Y-15.0469 Z2.0000
G2 X-25.4898 Y-14.4896 Z2.0000 I0.3465 J0.2108
G0 X-25.4898 Y-14.4896 Z14.0000
G0 X-0.3530 Y29.4760 Z14.0000
G1 X-0.3530 Y29.4760 Z2.0000
G3 X-0.1375 Y29.2921 Z2.0000 I0.3448 J0.1859
G3 X0.2002 Y30.0292 Z2.0000 I0.1378 J0.3828
G1 X-0.3530 Y29.4760 Z2.0000
G2 X0.2002 Y30.0292 Z2.0000 I0.3520 J0.2012
G0 X0.2002 Y30.0292 Z14.0000
G0 X0.2001 Y30.0293 Z14.0000
G0 X0.2001 Y30.0293 Z13.0000
G1 X0.2001 Y30.0293 Z1.0000
G2 X-0.1375 Y29.2921 Z1.0000 I-0.1998 J-0.3544
G2 X-0.3531 Y29.4761 Z1.0000 I0.1293 J0.3698
G1 X0.2001 Y30.0293 Z1.0000
G3 X-0.3531 Y29.4761 Z1.0000 I-0.2011 J-0.3521
G0 X-0.3531 Y29.4761 Z14.0000
G0 X4.7872 Y27.4435 Z14.0000
G0 X4.7872 Y27.4435 Z13.0000
G1 X4.7872 Y27.4435 Z1.0000
G3 X4.5905 Y26.3502 Z1.0000 I2.8464 J-1.0764
G1 X7.9560 Y29.7157 Z1.0000
G2 X8.7658 Y29.6288 Z1.0000 I0.1407 J-2.5052
G1 X4.5850 Y25.4481 Z1.0000
G1 X4.5850 Y24.5515 Z1.0000
G1 X9.4575 Y29.4240 Z1.0000
G1 X10.1313 Y29.2011 Z1.0000
G1 X4.5850 Y23.6548 Z1.0000
G1 X4.5850 Y22.7582 Z1.0000
G1 X10.7897 Y28.9629 Z1.0000
G1 X11.4368 Y28.7135 Z1.0000
G1 X4.5850 Y21.8616 Z1.0000
G1 X4.5850 Y20.9650 Z1.0000
G1 X12.0734 Y28.4534 Z1.0000
G1 X12.6951 Y28.1785 Z1.0000
G1 X4.5850 Y20.0684 Z1.0000
G1 X4.5850 Y19.1718 Z1.0000
G1 X13.3116 Y27.8984 Z1.0000
G1 X13.9087 Y27.5989 Z1.0000
G1 X4.5850 Y18.2752 Z1.0000
G1 X4.5850 Y17.3786 Z1.0000
G1 X14.5058 Y27.2993 Z1.0000
G2 X15.0800 Y26.9769 Z1.0000 I-3.0328 J-6.0739
G1 X4.5850 Y16.4820 Z1.0000
G1 X4.5850 Y15.5853 Z1.0000
G1 X15.6533 Y26.6536 Z1.0000
G2 X16.2107 Y26.3145 Z1.0000 I-3.2134 J-5.9102
G1 X4.5850 Y14.6887 Z1.0000
G1 X4.5850 Y13.7921 Z1.0000
G1 X16.7609 Y25.9680 Z1.0000
G2 X17.3025 Y25.6130 Z1.0000 I-3.3847 J-5.7549
G1 X4.5850 Y12.8955 Z1.0000
G1 X4.5850 Y11.9989 Z1.0000
G1 X17.8300 Y25.2439 Z1.0000
G2 X18.3565 Y24.8738 Z1.0000 I-3.5483 J-5.6062
G1 X4.5850 Y11.1023 Z1.0000
G1 X4.5850 Y10.2057 Z1.0000
G1 X18.8617 Y24.4824 Z1.0000
G1 X19.3670 Y24.0910 Z1.0000
G1 X4.5850 Y9.3091 Z1.0000
G1 X4.5850 Y8.4125 Z1.0000
G1 X19.8568 Y23.6843 Z1.0000
G1 X20.3401 Y23.2709 Z1.0000
G1 X4.5860 Y7.5169 Z1.0000
G3 X4.6324 Y6.6667 Z1.0000 I4.8821 J-0.1598
G1 X20.8159 Y22.8501 Z1.0000
G1 X21.2773 Y22.4150 Z1.0000
G1 X4.7493 Y5.8869 Z1.0000
G3 X4.9244 Y5.1654 Z1.0000 I4.2107 J0.6403
G1 X21.7388 Y21.9798 Z1.0000
G2 X22.1790 Y21.5234 Z1.0000 I-4.4797 J-4.7608
G1 X5.1495 Y4.4939 Z1.0000
G3 X5.4184 Y3.8662 Z1.0000 I3.7218 J1.2230
G1 X22.6187 Y21.0665 Z1.0000
G2 X23.0450 Y20.5962 Z1.0000 I-4.6294 J-4.6255
G1 X5.7269 Y3.2781 Z1.0000
G1 X6.0758 Y2.7304 Z1.0000
G1 X23.4629 Y20.1175 Z1.0000
G2 X23.8753 Y19.6332 Z1.0000 I-4.7803 J-4.4884
G1 X6.4614 Y2.2193 Z1.0000
G3 X6.8806 Y1.7420 Z1.0000 I2.9377 J2.1574
G1 X24.2712 Y19.1326 Z1.0000
G1 X24.6672 Y18.6319 Z1.0000
G1 X7.3330 Y1.2977 Z1.0000
G3 X7.8185 Y0.8866 Z1.0000 I2.5923 J2.5691
G1 X25.0431 Y18.1112 Z1.0000
G1 X25.4169 Y17.5884 Z1.0000
G1 X8.3379 Y0.5094 Z1.0000
G3 X8.8879 Y0.1628 Z1.0000 I4.2435 J6.1263
G1 X25.7778 Y17.0527 Z1.0000
G1 X26.1290 Y16.5073 Z1.0000
G1 X9.4564 Y-0.1653 Z1.0000
G1 X10.0248 Y-0.4935 Z1.0000
G1 X26.4743 Y15.9560 Z1.0000
G1 X26.8025 Y15.3876 Z1.0000
G1 X10.5932 Y-0.8217 Z1.0000
G1 X11.1617 Y-1.1499 Z1.0000
G1 X27.1307 Y14.8191 Z1.0000
G2 X27.4359 Y14.2277 Z1.0000 I-5.9373 J-3.4385
G1 X11.7301 Y-1.4781 Z1.0000
G1 X12.2985 Y-1.8063 Z1.0000
G1 X27.7404 Y13.6357 Z1.0000
G2 X28.0274 Y13.0260 Z1.0000 I-6.1340 J-3.2601
G1 X12.8669 Y-2.1344 Z1.0000
G1 X13.4354 Y-2.4626 Z1.0000
G1 X28.3076 Y12.4096 Z1.0000
G2 X28.5750 Y11.7804 Z1.0000 I-6.3456 J-3.0681
G1 X14.0038 Y-2.7908 Z1.0000
G1 X14.5722 Y-3.1190 Z1.0000
G1 X28.8299 Y11.1386 Z1.0000
G2 X29.0759 Y10.4881 Z1.0000 I-6.5757 J-2.8594
G1 X15.1407 Y-3.4472 Z1.0000
G1 X15.7091 Y-3.7753 Z1.0000
G1 X29.3044 Y9.8200 Z1.0000
G2 X29.5272 Y9.1461 Z1.0000 I-6.8280 J-2.6304
G1 X16.2775 Y-4.1035 Z1.0000
G1 X16.8460 Y-4.4317 Z1.0000
G1 X29.7280 Y8.4503 Z1.0000
G2 X29.9248 Y7.7505 Z1.0000 I-7.1078 J-2.3766
G1 X17.4144 Y-4.7599 Z1.0000
G1 X17.9828 Y-5.0881 Z1.0000
G1 X30.0965 Y7.0256 Z1.0000
G2 X30.2642 Y6.2967 Z1.0000 I-7.4212 J-2.0922
G1 X18.5512 Y-5.4163 Z1.0000
G1 X19.1197 Y-5.7444 Z1.0000
G1 X30.4049 Y5.5408 Z1.0000
G2 X30.5398 Y4.7791 Z1.0000 I-7.7764 J-1.7699
G1 X19.6881 Y-6.0726 Z1.0000
G1 X20.2565 Y-6.4008 Z1.0000
G1 X30.6474 Y3.9900 Z1.0000
G2 X30.7445 Y3.1906 Z1.0000 I-8.1837 J-1.4003
G1 X20.8250 Y-6.7290 Z1.0000
G1 X21.3934 Y-7.0572 Z1.0000
G1 X30.8164 Y2.3658 Z1.0000
G2 X30.8697 Y1.5226 Z1.0000 I-8.6570 J-0.9708
G1 X21.9618 Y-7.3854 Z1.0000
G1 X22.5302 Y-7.7135 Z1.0000
G1 X30.9029 Y0.6591 Z1.0000
G2 X30.9046 Y-0.2358 Z1.0000 I-9.2144 J-0.4650
G1 X23.0987 Y-8.0417 Z1.0000
G1 X23.6671 Y-8.3699 Z1.0000
G1 X30.8914 Y-1.1456 Z1.0000
G1 X30.8355 Y-2.0981 Z1.0000
G1 X24.2355 Y-8.6981 Z1.0000
G1 X24.8040 Y-9.0263 Z1.0000
G1 X30.7527 Y-3.0776 Z1.0000
G2 X30.6428 Y-4.0841 Z1.0000 I-10.4195 J0.6286
G1 X25.3904 Y-9.3364 Z1.0000
G3 X26.0676 Y-9.5559 Z1.0000 I0.9939 J1.9124
G1 X30.4759 Y-5.1476 Z1.0000
G2 X30.2660 Y-6.2540 Z1.0000 I-11.4985 J1.6075
G1 X26.8891 Y-9.6309 Z1.0000
G3 X28.0077 Y-9.4090 Z1.0000 I-0.0331 J3.0963
G1 X29.9692 Y-7.4474 Z1.0000
G2 X28.0077 Y-9.4090 Z1.0000 I-3.1585 J1.1970
G0 X28.0077 Y-9.4090 Z14.0000
G0 X25.2950 Y-14.8115 Z14.0000
G0 X25.2950 Y-14.8115 Z13.0000
G1 X25.2950 Y-14.8115 Z1.0000
G3 X25.7644 Y-15.2388 Z1.0000 I0.4024 J-0.0294
G1 X26.1008 Y-14.9024 Z1.0000
G2 X25.7644 Y-15.2388 Z1.0000 I-0.3966 J0.0602
G0 X25.7644 Y-15.2388 Z14.0000
G0 X21.0957 Y-22.5972 Z14.0000
G0 X21.0957 Y-22.5972 Z13.0000
G1 X21.0957 Y-22.5972 Z1.0000
G3 X22.1452 Y-20.6511 Z1.0000 I-2.2832 J2.4873
G1 X16.9606 Y-25.8358 Z1.0000
G2 X14.7258 Y-27.1739 Z1.0000 I-11.5406 J16.7381
G1 X22.1725 Y-19.7272 Z1.0000
G3 X22.0131 Y-18.9901 Z1.0000 I-2.2293 J-0.0963
G1 X12.9338 Y-28.0693 Z1.0000
G2 X11.3639 Y-28.7426 Z1.0000 I-7.7184 J15.8296
G1 X21.7333 Y-18.3732 Z1.0000
G3 X21.3585 Y-17.8514 Z1.0000 I-1.9817 J-1.0278
G1 X9.9464 Y-29.2635 Z1.0000
G2 X8.6388 Y-29.6745 Z1.0000 I-4.8860 J13.2596
G1 X20.9015 Y-17.4117 Z1.0000
G3 X20.3648 Y-17.0519 Z1.0000 I-2.5391 J-3.2073
G1 X7.4136 Y-30.0031 Z1.0000
G2 X6.2522 Y-30.2679 Z1.0000 I-3.3075 J11.8273
G1 X19.7963 Y-16.7237 Z1.0000
G1 X19.2279 Y-16.3955 Z1.0000
G1 X5.1414 Y-30.4821 Z1.0000
G1 X4.0908 Y-30.6361 Z1.0000
G1 X18.6595 Y-16.0674 Z1.0000
G1 X18.0910 Y-15.7392 Z1.0000
G1 X3.0784 Y-30.7519 Z1.0000
G2 X2.0934 Y-30.8402 Z1.0000 I-1.4022 J10.0983
G1 X17.5226 Y-15.4110 Z1.0000
G1 X16.9542 Y-15.0828 Z1.0000
G1 X1.1510 Y-30.8860 Z1.0000
G2 X0.2350 Y-30.9054 Z1.0000 I-0.6586 J9.4237
G1 X16.3858 Y-14.7546 Z1.0000
G1 X15.8173 Y-14.4264 Z1.0000
G1 X-0.6617 Y-30.9054 Z1.0000
G2 X-1.5208 Y-30.8680 Z1.0000 I-0.0441 J8.8661
G1 X15.2489 Y-14.0983 Z1.0000
G1 X14.6805 Y-13.7701 Z1.0000
G1 X-2.3702 Y-30.8208 Z1.0000
G1 X-3.1873 Y-30.7413 Z1.0000
G1 X14.1120 Y-13.4419 Z1.0000
G1 X13.5436 Y-13.1137 Z1.0000
G1 X-3.9931 Y-30.6504 Z1.0000
G1 X-4.7750 Y-30.5358 Z1.0000
G1 X12.9752 Y-12.7855 Z1.0000
G1 X12.4068 Y-12.4573 Z1.0000
G1 X-5.5431 Y-30.4072 Z1.0000
G1 X-6.2925 Y-30.2600 Z1.0000
G1 X11.8383 Y-12.1292 Z1.0000
G1 X11.2699 Y-11.8010 Z1.0000
G1 X-7.0277 Y-30.0986 Z1.0000
G1 X-7.7464 Y-29.9207 Z1.0000
G1 X10.7015 Y-11.4728 Z1.0000
G1 X10.1330 Y-11.1446 Z1.0000
G1 X-8.4526 Y-29.7303 Z1.0000
G1 X-9.1425 Y-29.5236 Z1.0000
G1 X9.5646 Y-10.8164 Z1.0000
G1 X8.9962 Y-10.4883 Z1.0000
G1 X-9.8227 Y-29.3072 Z1.0000
G1 X-10.4853 Y-29.0731 Z1.0000
G1 X8.4278 Y-10.1601 Z1.0000
G1 X7.8593 Y-9.8319 Z1.0000
G1 X-11.1421 Y-28.8333 Z1.0000
G1 X-11.7785 Y-28.5731 Z1.0000
G1 X7.2909 Y-9.5037 Z1.0000
G1 X6.7225 Y-9.1755 Z1.0000
G1 X-12.4139 Y-28.3119 Z1.0000
G1 X-13.0252 Y-28.0266 Z1.0000
G1 X6.1540 Y-8.8473 Z1.0000
G1 X5.5856 Y-8.5192 Z1.0000
G1 X-13.6366 Y-27.7413 Z1.0000
G2 X-14.2281 Y-27.4363 Z1.0000 I2.8453 J6.2444
G1 X5.0172 Y-8.1910 Z1.0000
G1 X4.4488 Y-7.8628 Z1.0000
G1 X-14.8152 Y-27.1268 Z1.0000
G2 X-15.3893 Y-26.8042 Z1.0000 I3.0345 J6.0725
G1 X3.8670 Y-7.5479 Z1.0000
G3 X3.2564 Y-7.2619 Z1.0000 I-1.9399 J-3.3465
G1 X-15.9529 Y-26.4712 Z1.0000
G2 X-16.5104 Y-26.1321 Z1.0000 I3.2128 J5.9108
G1 X2.6032 Y-7.0185 Z1.0000
G3 X1.9019 Y-6.8232 Z1.0000 I-1.4669 J-3.9103
G1 X-17.0511 Y-25.7762 Z1.0000
G1 X-17.5917 Y-25.4202 Z1.0000
G1 X1.1447 Y-6.6838 Z1.0000
G3 X0.3203 Y-6.6116 Z1.0000 I-0.8248 J-4.6755
G1 X-18.1111 Y-25.0430 Z1.0000
G1 X-18.6293 Y-24.6646 Z1.0000
G1 X-0.5880 Y-6.6233 Z1.0000
G3 X-1.6226 Y-6.7613 Z1.0000 I0.1588 J-5.1386
G1 X-19.1341 Y-24.2727 Z1.0000
G1 X-19.6301 Y-23.8722 Z1.0000
G1 X-2.8562 Y-7.0983 Z1.0000
G3 X-4.6111 Y-7.9565 Z1.0000 I3.1737 J-8.7125
G1 X-20.1206 Y-23.4660 Z1.0000
G1 X-20.5947 Y-23.0436 Z1.0000
G1 X-6.7325 Y-9.1813 Z1.0000
G1 X-8.8539 Y-10.4061 Z1.0000
G1 X-21.0689 Y-22.6211 Z1.0000
G2 X-21.4937 Y-22.1493 Z1.0000 I1.5819 J1.8513
G1 X-10.9753 Y-11.6309 Z1.0000
G1 X-13.0967 Y-12.8557 Z1.0000
G1 X-21.8396 Y-21.5986 Z1.0000
G2 X-22.0808 Y-20.9431 Z1.0000 I2.2438 J1.1974
G1 X-15.2181 Y-14.0805 Z1.0000
G1 X-17.3395 Y-15.3053 Z1.0000
G1 X-22.1905 Y-20.1562 Z1.0000
G2 X-22.0576 Y-19.1267 Z1.0000 I3.0558 J0.1289
G1 X-19.4609 Y-16.5301 Z1.0000
G3 X-20.8451 Y-17.3632 Z1.0000 I5.9967 J-11.5293
G3 X-22.0576 Y-19.1267 Z1.0000 I2.0328 J-2.6962
G0 X-22.0576 Y-19.1267 Z14.0000
G0 X-26.0472 Y-15.0468 Z14.0000
G0 X-26.0472 Y-15.0468 Z13.0000
G1 X-26.0472 Y-15.0468 Z1.0000
G3 X-25.3349 Y-14.6568 Z1.0000 I0.3487 J0.2086
G3 X-25.4899 Y-14.4896 Z1.0000 I-0.3532 J-0.1719
G1 X-26.0472 Y-15.0468 Z1.0000
G2 X-25.4899 Y-14.4896 Z1.0000 I0.3466 J0.2106
G0 X-25.4899 Y-14.4896 Z14.0000
G0 X-9.2578 Y-0.0507 Z14.0000
G0 X-9.2578 Y-0.0507 Z13.0000
G1 X-9.2578 Y-0.0507 Z1.0000
G3 X-5.5024 Y3.7047 Z1.0000 I-3.8468 J7.6023
G1 X-9.2578 Y-0.0507 Z1.0000
G1 X-11.3792 Y-1.2755 Z1.0000
G1 X-4.9181 Y5.1857 Z1.0000
G3 X-4.6777 Y6.3226 Z1.0000 I-5.4338 J1.7425
G1 X-13.5006 Y-2.5003 Z1.0000
G1 X-15.6221 Y-3.7251 Z1.0000
G1 X-4.5954 Y7.3015 Z1.0000
G3 X-4.5850 Y8.2086 Z1.0000 I-10.3820 J0.5728
G1 X-17.7435 Y-4.9499 Z1.0000
G1 X-19.8649 Y-6.1747 Z1.0000
G1 X-4.5850 Y9.1052 Z1.0000
G1 X-4.5850 Y10.0018 Z1.0000
G1 X-21.9863 Y-7.3995 Z1.0000
G1 X-24.1077 Y-8.6243 Z1.0000
G1 X-4.5850 Y10.8984 Z1.0000
G1 X-4.5850 Y11.7950 Z1.0000
G1 X-25.8996 Y-9.5196 Z1.0000
G2 X-26.9069 Y-9.6303 Z1.0000 I-0.8019 J2.6591
G1 X-4.5850 Y12.6916 Z1.0000
G1 X-4.5850 Y13.5882 Z1.0000
G1 X-27.6853 Y-9.5120 Z1.0000
G2 X-28.3362 Y-9.2664 Z1.0000 I0.3774 J1.9850
G1 X-4.5850 Y14.4848 Z1.0000
G1 X-4.5850 Y15.3815 Z1.0000
G1 X-28.8793 Y-8.9129 Z1.0000
G2 X-29.3452 Y-8.4821 Z1.0000 I1.0682 J1.6225
G1 X-4.5850 Y16.2781 Z1.0000
G1 X-4.5850 Y17.1747 Z1.0000
G1 X-29.7181 Y-7.9584 Z1.0000
G2 X-30.0047 Y-7.3484 Z1.0000 I1.7109 J1.1760
G1 X-4.5850 Y18.0713 Z1.0000
G1 X-4.5850 Y18.9679 Z1.0000
G1 X-30.1873 Y-6.6344 Z1.0000
G1 X-30.3411 Y-5.8916 Z1.0000
G1 X-4.5850 Y19.8645 Z1.0000
G1 X-4.5850 Y20.7611 Z1.0000
G1 X-30.4783 Y-5.1322 Z1.0000
G1 X-30.5999 Y-4.3572 Z1.0000
G1 X-4.5850 Y21.6577 Z1.0000
G1 X-4.5850 Y22.5544 Z1.0000
G1 X-30.7006 Y-3.5613 Z1.0000
G1 X-30.7877 Y-2.7517 Z1.0000
G1 X-4.5850 Y23.4510 Z1.0000
G1 X-4.5850 Y24.3476 Z1.0000
G1 X-30.8463 Y-1.9137 Z1.0000
G1 X-30.8960 Y-1.0668 Z1.0000
G1 X-4.5850 Y25.2442 Z1.0000
G1 X-4.5850 Y26.1408 Z1.0000
G1 X-30.9052 Y-0.1794 Z1.0000
G2 X-30.9005 Y0.7219 Z1.0000 I9.2834 J0.4024
G1 X-4.6579 Y26.9645 Z1.0000
G3 X-4.8678 Y27.6512 Z1.0000 I-2.1953 J-0.2956
G1 X-30.8647 Y1.6544 Z1.0000
G2 X-30.7941 Y2.6215 Z1.0000 I9.9946 J-0.2429
G1 X-5.1847 Y28.2310 Z1.0000
G3 X-5.5922 Y28.7200 Z1.0000 I-1.8892 J-1.1601
G1 X-30.6987 Y3.6136 Z1.0000
G1 X-30.5572 Y4.6517 Z1.0000
G1 X-6.0815 Y29.1274 Z1.0000
G3 X-6.6627 Y29.4428 Z1.0000 I-1.3834 J-1.8560
G1 X-30.3684 Y5.7371 Z1.0000
G2 X-30.1337 Y6.8684 Z1.0000 I11.7672 J-1.8513
G1 X-7.3448 Y29.6573 Z1.0000
G3 X-8.1824 Y29.7163 Z1.0000 I-0.5771 J-2.2180
G1 X-29.8415 Y8.0572 Z1.0000
G2 X-29.4755 Y9.3198 Z1.0000 I13.1841 J-3.1371
G1 X-9.3287 Y29.4666 Z1.0000
G3 X-10.6909 Y29.0010 Z1.0000 I4.1127 J-14.2594
G1 X-29.0095 Y10.6824 Z1.0000
G2 X-28.4148 Y12.1737 Z1.0000 I15.3622 J-5.2619
G1 X-12.1840 Y28.4045 Z1.0000
G3 X-13.8637 Y27.6214 Z1.0000 I7.2240 J-17.6883
G1 X-27.6250 Y13.8602 Z1.0000
G2 X-26.5407 Y15.8411 Z1.0000 I20.9402 J-10.1748
G1 X-15.8250 Y26.5567 Z1.0000
G3 X-18.5699 Y24.7084 Z1.0000 I14.8323 J-24.9898
G1 X-24.7322 Y18.5461 Z1.0000
G2 X-18.5699 Y24.7084 Z1.0000 I24.4721 J-18.3098
G0 X-18.5699 Y24.7084 Z14.0000
G0 X0.1401 Y0.3811 Z14.0000
G0 X0.1401 Y0.3811 Z13.0000
G1 X0.1401 Y0.3811 Z1.0000
G2 X0.3995 Y0.0795 Z1.0000 I-0.1348 J-0.3783
G2 X-0.3811 Y-0.1401 Z1.0000 I-0.3987 J-0.0800
G1 X0.1401 Y0.3811 Z1.0000
G3 X-0.3811 Y-0.1401 Z1.0000 I-0.1417 J-0.3796
G0 X-0.3811 Y-0.1401 Z14.0000
G0 X-9.2578 Y-0.0507 Z14.0000
G0 X-9.2578 Y-0.0507 Z12.0000
G1 X-9.2578 Y-0.0507 Z0.0000
G3 X-5.5024 Y3.7047 Z0.0000 I-3.8468 J7.6023
G1 X-9.2578 Y-0.0507 Z0.0000
G1 X-11.3792 Y-1.2755 Z0.0000
G1 X-4.9181 Y5.1857 Z0.0000
G3 X-4.6777 Y6.3226 Z0.0000 I-5.4338 J1.7425
G1 X-13.5006 Y-2.5003 Z0.0000
G1 X-15.6221 Y-3.7251 Z0.0000
G1 X-4.5954 Y7.3015 Z0.0000
G3 X-4.5850 Y8.2086 Z0.0000 I-10.3820 J0.5728
G1 X-17.7435 Y-4.9499 Z0.0000
G1 X-19.8649 Y-6.1747 Z0.0000
G1 X-4.5850 Y9.1052 Z0.0000
G1 X-4.5850 Y10.0018 Z0.0000
G1 X-21.9863 Y-7.3995 Z0.0000
G1 X-24.1077 Y-8.6243 Z0.0000
G1 X-4.5850 Y10.8984 Z0.0000
G1 X-4.5850 Y11.7950 Z0.0000
G1 X-25.8996 Y-9.5196 Z0.0000
G2 X-26.9069 Y-9.6303 Z0.0000 I-0.8019 J2.6591
G1 X-4.5850 Y12.6916 Z0.0000
G1 X-4.5850 Y13.5882 Z0.0000
G1 X-27.6853 Y-9.5120 Z0.0000
G2 X-28.3362 Y-9.2664 Z0.0000 I0.3774 J1.9850
G1 X-4.5850 Y14.4848 Z0.0000
G1 X-4.5850 Y15.3815 Z0.0000
G1 X-28.8793 Y-8.9129 Z0.0000
G2 X-29.3452 Y-8.4821 Z0.0000 I1.0682 J1.6225
G1 X-4.5850 Y16.2781 Z0.0000
G1 X-4.5850 Y17.1747 Z0.0000
G1 X-29.7181 Y-7.9584 Z0.0000
G2 X-30.0047 Y-7.3484 Z0.0000 I1.7109 J1.1760
G1 X-4.5850 Y18.0713 Z0.0000
G1 X-4.5850 Y18.9679 Z0.0000
G1 X-30.1873 Y-6.6344 Z0.0000
G1 X-30.3411 Y-5.8916 Z0.0000
G1 X-4.5850 Y19.8645 Z0.0000
G1 X-4.5850 Y20.7611 Z0.0000
G1 X-30.4783 Y-5.1322 Z0.0000
G1 X-30.5999 Y-4.3572 Z0.0000
G1 X-4.5850 Y21.6577 Z0.0000
G1 X-4.5850 Y22.5544 Z0.0000
G1 X-30.7006 Y-3.5613 Z0.0000
G1 X-30.7877 Y-2.7517 Z0.0000
G1 X-4.5850 Y23.4510 Z0.0000
G1 X-4.5850 Y24.3476 Z0.0000
G1 X-30.8463 Y-1.9137 Z0.0000
G1 X-30.8960 Y-1.0668 Z0.0000
G1 X-4.5850 Y25.2442 Z0.0000
G1 X-4.5850 Y26.1408 Z0.0000
G1 X-30.9052 Y-0.1794 Z0.0000
G2 X-30.9005 Y0.7219 Z0.0000 I9.2834 J0.4024
G1 X-4.6579 Y26.9645 Z0.0000
G3 X-4.8678 Y27.6512 Z0.0000 I-2.1953 J-0.2956
G1 X-30.8647 Y1.6544 Z0.0000
G2 X-30.7941 Y2.6215 Z0.0000 I9.9946 J-0.2429
G1 X-5.1847 Y28.2310 Z0.0000
G3 X-5.5922 Y28.7200 Z0.0000 I-1.8892 J-1.1601
G1 X-30.6987 Y3.6136 Z0.0000
G1 X-30.5572 Y4.6517 Z0.0000
G1 X-6.0815 Y29.1274 Z0.0000
G3 X-6.6627 Y29.4428 Z0.0000 I-1.3834 J-1.8560
G1 X-30.3684 Y5.7371 Z0.0000
G2 X-30.1337 Y6.8684 Z0.0000 I11.7672 J-1.8513
G1 X-7.3448 Y29.6573 Z0.0000
G3 X-8.1824 Y29.7163 Z0.0000 I-0.5771 J-2.2180
G1 X-29.8415 Y8.0572 Z0.0000
G2 X-29.4755 Y9.3198 Z0.0000 I13.1841 J-3.1371
G1 X-9.3287 Y29.4666 Z0.0000
G3 X-10.6909 Y29.0010 Z0.0000 I4.1127 J-14.2594
G1 X-29.0095 Y10.6824 Z0.0000
G2 X-28.4148 Y12.1737 Z0.0000 I15.3622 J-5.2619
G1 X-12.1840 Y28.4045 Z0.0000
G3 X-13.8637 Y27.6214 Z0.0000 I7.2240 J-17.6883
G1 X-27.6250 Y13.8602 Z0.0000
G2 X-26.5407 Y15.8411 Z0.0000 I20.9402 J-10.1748
G1 X-15.8250 Y26.5567 Z0.0000
G3 X-18.5699 Y24.7084 Z0.0000 I14.8323 J-24.9898
G1 X-24.7322 Y18.5461 Z0.0000
G2 X-18.5699 Y24.7084 Z0.0000 I24.4721 J-18.3098
G0 X-18.5699 Y24.7084 Z14.0000
G0 X4.7872 Y27.4435 Z14.0000
G0 X4.7872 Y27.4435 Z12.0000
G1 X4.7872 Y27.4435 Z0.0000
G3 X4.5905 Y26.3502 Z0.0000 I2.8464 J-1.0764
G1 X7.9560 Y29.7157 Z0.0000
G2 X8.7658 Y29.6288 Z0.0000 I0.1407 J-2.5052
G1 X4.5850 Y25.4481 Z0.0000
G1 X4.5850 Y24.5515 Z0.0000
G1 X9.4575 Y29.4240 Z0.0000
G1 X10.1313 Y29.2011 Z0.0000
G1 X4.5850 Y23.6548 Z0.0000
G1 X4.5850 Y22.7582 Z0.0000
G1 X10.7897 Y28.9629 Z0.0000
G1 X11.4368 Y28.7135 Z0.0000
G1 X4.5850 Y21.8616 Z0.0000
G1 X4.5850 Y20.9650 Z0.0000
G1 X12.0734 Y28.4534 Z0.0000
G1 X12.6951 Y28.1785 Z0.0000
G1 X4.5850 Y20.0684 Z0.0000
G1 X4.5850 Y19.1718 Z0.0000
G1 X13.3116 Y27.8984 Z0.0000
G1 X13.9087 Y27.5989 Z0.0000
G1 X4.5850 Y18.2752 Z0.0000
G1 X4.5850 Y17.3786 Z0.0000
G1 X14.5058 Y27.2993 Z0.0000
G2 X15.0800 Y26.9769 Z0.0000 I-3.0328 J-6.0739
G1 X4.5850 Y16.4820 Z0.0000
G1 X4.5850 Y15.5853 Z0.0000
G1 X15.6533 Y26.6536 Z0.0000
G2 X16.2107 Y26.3145 Z0.0000 I-3.2134 J-5.9102
G1 X4.5850 Y14.6887 Z0.0000
G1 X4.5850 Y13.7921 Z0.0000
G1 X16.7609 Y25.9680 Z0.0000
G2 X17.3025 Y25.6130 Z0.0000 I-3.3847 J-5.7549
G1 X4.5850 Y12.8955 Z0.0000
G1 X4.5850 Y11.9989 Z0.0000
G1 X17.8300 Y25.2439 Z0.0000
G2 X18.3565 Y24.8738 Z0.0000 I-3.5483 J-5.6062
G1 X4.5850 Y11.1023 Z0.0000
G1 X4.5850 Y10.2057 Z0.0000
G1 X18.8617 Y24.4824 Z0.0000
G1 X19.3670 Y24.0910 Z0.0000
G1 X4.5850 Y9.3091 Z0.0000
G1 X4.5850 Y8.4125 Z0.0000
G1 X19.8568 Y23.6843 Z0.0000
G1 X20.3401 Y23.2709 Z0.0000
G1 X4.5860 Y7.5169 Z0.0000
G3 X4.6324 Y6.6667 Z0.0000 I4.8821 J-0.1598
G1 X20.8159 Y22.8501 Z0.0000
G1 X21.2773 Y22.4150 Z0.0000
G1 X4.7493 Y5.8869 Z0.0000
G3 X4.9244 Y5.1654 Z0.0000 I4.2107 J0.6403
G1 X21.7388 Y21.9798 Z0.0000
G2 X22.1790 Y21.5234 Z0.0000 I-4.4797 J-4.7608
G1 X5.1495 Y4.4939 Z0.0000
G3 X5.4184 Y3.8662 Z0.0000 I3.7218 J1.2230
G1 X22.6187 Y21.0665 Z0.0000
G2 X23.0450 Y20.5962 Z0.0000 I-4.6294 J-4.6255
G1 X5.7269 Y3.2781 Z0.0000
G1 X6.0758 Y2.7304 Z0.0000
G1 X23.4629 Y20.1175 Z0.0000
G2 X23.8753 Y19.6332 Z0.0000 I-4.7803 J-4.4884
G1 X6.4614 Y2.2193 Z0.0000
G3 X6.8806 Y1.7420 Z0.0000 I2.9377 J2.1574
G1 X24.2712 Y19.1326 Z0.0000
G1 X24.6672 Y18.6319 Z0.0000
G1 X7.3330 Y1.2977 Z0.0000
G3 X7.8185 Y0.8866 Z0.0000 I2.5923 J2.5691
G1 X25.0431 Y18.1112 Z0.0000
G1 X25.4169 Y17.5884 Z0.0000
G1 X8.3379 Y0.5094 Z0.0000
G3 X8.8879 Y0.1628 Z0.0000 I4.2435 J6.1263
G1 X25.7778 Y17.0527 Z0.0000
G1 X26.1290 Y16.5073 Z0.0000
G1 X9.4564 Y-0.1653 Z0.0000
G1 X10.0248 Y-0.4935 Z0.0000
G1 X26.4743 Y15.9560 Z0.0000
G1 X26.8025 Y15.3876 Z0.0000
G1 X10.5932 Y-0.8217 Z0.0000
G1 X11.1617 Y-1.1499 Z0.0000
G1 X27.1307 Y14.8191 Z0.0000
G2 X27.4359 Y14.2277 Z0.0000 I-5.9373 J-3.4385
G1 X11.7301 Y-1.4781 Z0.0000
G1 X12.2985 Y-1.8063 Z0.0000
G1 X27.7404 Y13.6357 Z0.0000
G2 X28.0274 Y13.0260 Z0.0000 I-6.1340 J-3.2601
G1 X12.8669 Y-2.1344 Z0.0000
G1 X13.4354 Y-2.4626 Z0.0000
G1 X28.3076 Y12.4096 Z0.0000
G2 X28.5750 Y11.7804 Z0.0000 I-6.3456 J-3.0681
G1 X14.0038 Y-2.7908 Z0.0000
G1 X14.5722 Y-3.1190 Z0.0000
G1 X28.8299 Y11.1386 Z0.0000
G2 X29.0759 Y10.4881 Z0.0000 I-6.5757 J-2.8594
G1 X15.1407 Y-3.4472 Z0.0000
G1 X15.7091 Y-3.7753 Z0.0000
G1 X29.3044 Y9.8200 Z0.0000
G2 X29.5272 Y9.1461 Z0.0000 I-6.8280 J-2.6304
G1 X16.2775 Y-4.1035 Z0.0000
G1 X16.8460 Y-4.4317 Z0.0000
G1 X29.7280 Y8.4503 Z0.0000
G2 X29.9248 Y7.7505 Z0.0000 I-7.1078 J-2.3766
G1 X17.4144 Y-4.7599 Z0.0000
G1 X17.9828 Y-5.0881 Z0.0000
G1 X30.0965 Y7.0256 Z0.0000
G2 X30.2642 Y6.2967 Z0.0000 I-7.4212 J-2.0922
G1 X18.5512 Y-5.4163 Z0.0000
G1 X19.1197 Y-5.7444 Z0.0000
G1 X30.4049 Y5.5408 Z0.0000
G2 X30.5398 Y4.7791 Z0.0000 I-7.7764 J-1.7699
G1 X19.6881 Y-6.0726 Z0.0000
G1 X20.2565 Y-6.4008 Z0.0000
G1 X30.6474 Y3.9900 Z0.0000
G2 X30.7445 Y3.1906 Z0.0000 I-8.1837 J-1.4003
G1 X20.8250 Y-6.7290 Z0.0000
G1 X21.3934 Y-7.0572 Z0.0000
G1 X30.8164 Y2.3658 Z0.0000
G2 X30.8697 Y1.5226 Z0.0000 I-8.6570 J-0.9708
G1 X21.9618 Y-7.3854 Z0.0000
G1 X22.5302 Y-7.7135 Z0.0000
G1 X30.9029 Y0.6591 Z0.0000
G2 X30.9046 Y-0.2358 Z0.0000 I-9.2144 J-0.4650
G1 X23.0987 Y-8.0417 Z0.0000
G1 X23.6671 Y-8.3699 Z0.0000
G1 X30.8914 Y-1.1456 Z0.0000
G1 X30.8355 Y-2.0981 Z0.0000
G1 X24.2355 Y-8.6981 Z0.0000
G1 X24.8040 Y-9.0263 Z0.0000
G1 X30.7527 Y-3.0776 Z0.0000
G2 X30.6428 Y-4.0841 Z0.0000 I-10.4195 J0.6286
G1 X25.3904 Y-9.3364 Z0.0000
G3 X26.0676 Y-9.5559 Z0.0000 I0.9939 J1.9124
G1 X30.4759 Y-5.1476 Z0.0000
G2 X30.2660 Y-6.2540 Z0.0000 I-11.4985 J1.6075
G1 X26.8891 Y-9.6309 Z0.0000
G3 X28.0077 Y-9.4090 Z0.0000 I-0.0331 J3.0963
G1 X29.9692 Y-7.4474 Z0.0000
G2 X28.0077 Y-9.4090 Z0.0000 I-3.1585 J1.1970
G0 X28.0077 Y-9.4090 Z14.0000
G0 X21.0957 Y-22.5972 Z14.0000
G0 X21.0957 Y-22.5972 Z12.0000
G1 X21.0957 Y-22.5972 Z0.0000
G3 X22.1452 Y-20.6511 Z0.0000 I-2.2832 J2.4873
G1 X16.9606 Y-25.8358 Z0.0000
G2 X14.7258 Y-27.1739 Z0.0000 I-11.5406 J16.7381
G1 X22.1725 Y-19.7272 Z0.0000
G3 X22.0131 Y-18.9901 Z0.0000 I-2.2293 J-0.0963
G1 X12.9338 Y-28.0693 Z0.0000
G2 X11.3639 Y-28.7426 Z0.0000 I-7.7184 J15.8296
G1 X21.7333 Y-18.3732 Z0.0000
G3 X21.3585 Y-17.8514 Z0.0000 I-1.9817 J-1.0278
G1 X9.9464 Y-29.2635 Z0.0000
G2 X8.6388 Y-29.6745 Z0.0000 I-4.8860 J13.2596
G1 X20.9015 Y-17.4117 Z0.0000
G3 X20.3648 Y-17.0519 Z0.0000 I-2.5391 J-3.2073
G1 X7.4136 Y-30.0031 Z0.0000
G2 X6.2522 Y-30.2679 Z0.0000 I-3.3075 J11.8273
G1 X19.7963 Y-16.7237 Z0.0000
G1 X19.2279 Y-16.3955 Z0.0000
G1 X5.1414 Y-30.4821 Z0.0000
G1 X4.0908 Y-30.6361 Z0.0000
G1 X18.6595 Y-16.0674 Z0.0000
G1 X18.0910 Y-15.7392 Z0.0000
G1 X3.0784 Y-30.7519 Z0.0000
G2 X2.0934 Y-30.8402 Z0.0000 I-1.4022 J10.0983
G1 X17.5226 Y-15.4110 Z0.0000
G1 X16.9542 Y-15.0828 Z0.0000
G1 X1.1510 Y-30.8860 Z0.0000
G2 X0.2350 Y-30.9054 Z0.0000 I-0.6586 J9.4237
G1 X16.3858 Y-14.7546 Z0.0000
G1 X15.8173 Y-14.4264 Z0.0000
G1 X-0.6617 Y-30.9054 Z0.0000
G2 X-1.5208 Y-30.8680 Z0.0000 I-0.0441 J8.8661
G1 X15.2489 Y-14.0983 Z0.0000
G1 X14.6805 Y-13.7701 Z0.0000
G1 X-2.3702 Y-30.8208 Z0.0000
G1 X-3.1873 Y-30.7413 Z0.0000
G1 X14.1120 Y-13.4419 Z0.0000
G1 X13.5436 Y-13.1137 Z0.0000
G1 X-3.9931 Y-30.6504 Z0.0000
G1 X-4.7750 Y-30.5358 Z0.0000
G1 X12.9752 Y-12.7855 Z0.0000
G1 X12.4068 Y-12.4573 Z0.0000
G1 X-5.5431 Y-30.4072 Z0.0000
G1 X-6.2925 Y-30.2600 Z0.0000
G1 X11.8383 Y-12.1292 Z0.0000
G1 X11.2699 Y-11.8010 Z0.0000
G1 X-7.0277 Y-30.0986 Z0.0000
G1 X-7.7464 Y-29.9207 Z0.0000
G1 X10.7015 Y-11.4728 Z0.0000
G1 X10.1330 Y-11.1446 Z0.0000
G1 X-8.4526 Y-29.7303 Z0.0000
G1 X-9.1425 Y-29.5236 Z0.0000
G1 X9.5646 Y-10.8164 Z0.0000
G1 X8.9962 Y-10.4883 Z0.0000
G1 X-9.8227 Y-29.3072 Z0.0000
G1 X-10.4853 Y-29.0731 Z0.0000
G1 X8.4278 Y-10.1601 Z0.0000
G1 X7.8593 Y-9.8319 Z0.0000
G1 X-11.1421 Y-28.8333 Z0.0000
G1 X-11.7785 Y-28.5731 Z0.0000
G1 X7.2909 Y-9.5037 Z0.0000
G1 X6.7225 Y-9.1755 Z0.0000
G1 X-12.4139 Y-28.3119 Z0.0000
G1 X-13.0252 Y-28.0266 Z0.0000
G1 X6.1540 Y-8.8473 Z0.0000
G1 X5.5856 Y-8.5192 Z0.0000
G1 X-13.6366 Y-27.7413 Z0.0000
G2 X-14.2281 Y-27.4363 Z0.0000 I2.8453 J6.2444
G1 X5.0172 Y-8.1910 Z0.0000
G1 X4.4488 Y-7.8628 Z0.0000
G1 X-14.8152 Y-27.1268 Z0.0000
G2 X-15.3893 Y-26.8042 Z0.0000 I3.0345 J6.0725
G1 X3.8670 Y-7.5479 Z0.0000
G3 X3.2564 Y-7.2619 Z0.0000 I-1.9399 J-3.3465
G1 X-15.9529 Y-26.4712 Z0.0000
G2 X-16.5104 Y-26.1321 Z0.0000 I3.2128 J5.9108
G1 X2.6032 Y-7.0185 Z0.0000
G3 X1.9019 Y-6.8232 Z0.0000 I-1.4669 J-3.9103
G1 X-17.0511 Y-25.7762 Z0.0000
G1 X-17.5917 Y-25.4202 Z0.0000
G1 X1.1447 Y-6.6838 Z0.0000
G3 X0.3203 Y-6.6116 Z0.0000 I-0.8248 J-4.6755
G1 X-18.1111 Y-25.0430 Z0.0000
G1 X-18.6293 Y-24.6646 Z0.0000
G1 X-0.5880 Y-6.6233 Z0.0000
G3 X-1.6226 Y-6.7613 Z0.0000 I0.1588 J-5.1386
G1 X-19.1341 Y-24.2727 Z0.0000
G1 X-19.6301 Y-23.8722 Z0.0000
G1 X-2.8562 Y-7.0983 Z0.0000
G3 X-4.6111 Y-7.9565 Z0.0000 I3.1737 J-8.7125
G1 X-20.1206 Y-23.4660 Z0.0000
G1 X-20.5947 Y-23.0436 Z0.0000
G1 X-6.7325 Y-9.1813 Z0.0000
G1 X-8.8539 Y-10.4061 Z0.0000
G1 X-21.0689 Y-22.6211 Z0.0000
G2 X-21.4937 Y-22.1493 Z0.0000 I1.5819 J1.8513
G1 X-10.9753 Y-11.6309 Z0.0000
G1 X-13.0967 Y-12.8557 Z0.0000
G1 X-21.8396 Y-21.5986 Z0.0000
G2 X-22.0808 Y-20.9431 Z0.0000 I2.2438 J1.1974
G1 X-15.2181 Y-14.0805 Z0.0000
G1 X-17.3395 Y-15.3053 Z0.0000
G1 X-22.1905 Y-20.1562 Z0.0000
G2 X-22.0576 Y-19.1267 Z0.0000 I3.0558 J0.1289
G1 X-19.4609 Y-16.5301 Z0.0000
G3 X-20.8451 Y-17.3632 Z0.0000 I5.9967 J-11.5293
G3 X-22.0576 Y-19.1267 Z0.0000 I2.0328 J-2.6962
G0 Z14.0000
(finish operation: Pocket_3D)
(begin postamble)
M05
G17 G90
M2
